Vlog/LUT/cinematic-teal-and-orange-camila-ballell/Assets/Teal&Orange.cube
TITLE "Generated by Resolve"
LUT_3D_SIZE 9
0 0.00355535 0.0065919
0.11751 0 0.00111391
0.259205 0 0
0.400977 0 0
0.542733 0 0
0.684443 0 0
0.826154 0 0
0.967865 0 0
1 0 0
0 0.128252 0.00723278
0.107256 0.128862 0
0.262974 0.115038 0
0.411826 0.0995804 0
0.559365 0.0849317 0
0.71252 0.0763714 0
0.866819 0.0720073 0
1 0.0691844 0
1 0.0665904 0
0 0.253025 0.00793469
0.106569 0.251774 0.00706493
0.237827 0.253391 0
0.386908 0.232654 0
0.534829 0.21207 0
0.685985 0.197803 0
0.838163 0.186496 0
0.989944 0.175662 0
1 0.165103 0
0 0.377874 0.00869764
0.107576 0.376516 0.00790417
0.236042 0.375128 0.00648508
0.367559 0.377142 0
0.509667 0.349798 0
0.659892 0.330297 0
0.812024 0.314183 0
0.964767 0.300938 0
1 0.289143 0
0 0.502708 0.00946059
0.108614 0.501335 0.0087129
0.237171 0.499916 0.00747692
0.36492 0.498619 0.00355535
0.497337 0.500938 0
0.636744 0.471061 0
0.787045 0.451408 0
0.938445 0.433417 0
1 0.417731 0
0 0.627512 0.0101778
0.109621 0.626139 0.00947585
0.238285 0.624735 0.00839246
0.366613 0.623224 0.0068513
0.493065 0.623148 0
0.627695 0.625284 0
0.765698 0.594324 0
0.914443 0.572931 0
1 0.554131 0
0 0.7523 0.0108949
0.110582 0.750927 0.0102235
0.239353 0.749554 0.00924697
0.367819 0.748089 0.00790417
0.495995 0.746517 0.00616464
0.621393 0.748196 0
0.758053 0.74963 0
0.895323 0.718532 0
1 0.69456 0
0 0.877089 0.0116121
0.111543 0.875731 0.0109712
0.24036 0.874342 0.0100557
0.368948 0.872923 0.00885023
0.497276 0.871412 0.00730907
0.625284 0.869795 0.00518807
0.750149 0.873411 0
0.888426 0.873976 0
1 0.843259 0
0 1 0.0123293
0.112505 1 0.0116884
0.241382 0.999146 0.0108339
0.370031 0.997742 0.00972
0.498466 0.996277 0.00833143
0.626673 0.994705 0.00665293
0.753933 0.993637 0.000488289
0.879271 0.998764 0
1 0.998322 0
0 0.0288701 0.0894026
0.10663 0.00323491 0.118074
0.23682 0.00189212 0.116945
0.367391 0.000534066 0.115724
0.498207 0 0.114443
0.629236 0 0.113054
0.761349 0 0.111513
0.895415 0 0.109697
1 0 0.107576
0 0.138048 0.101946
0.107042 0.128008 0.11873
0.248737 0.123705 0.113313
0.390585 0.119524 0.108003
0.532479 0.115389 0.102754
0.674311 0.111192 0.0974441
0.816022 0.106889 0.0920424
0.957732 0.102602 0.0866255
1 0.0982986 0.0812238
0 0.254307 0.119463
0.107912 0.252735 0.119387
0.238224 0.253132 0.0942397
0.389349 0.234974 0.0671855
0.533593 0.215137 0.05037
0.677974 0.197498 0.0346532
0.832197 0.189929 0.0274968
0.989197 0.188159 0.025803
1 0.187778 0.0255283
0 0.379095 0.120439
0.108888 0.377569 0.120134
0.237705 0.376226 0.119188
0.368338 0.377264 0.0688487
0.511086 0.3505 0.02327
0.654521 0.325658 0.000976577
0.804364 0.310124 0
0.95639 0.298665 0
1 0.287816 0
0 0.50396 0.12134
0.109941 0.502464 0.120943
0.238773 0.501015 0.120058
0.367102 0.499489 0.118517
0.497627 0.500587 0.0427405
0.632807 0.466667 0
0.780316 0.444587 0
0.93106 0.427131 0
1 0.413367 0
0 0.628763 0.122118
0.110964 0.627329 0.121721
0.239857 0.625879 0.120912
0.368292 0.624353 0.11957
0.495857 0.622858 0.115496
0.627192 0.62417 0.0168765
0.760449 0.588464 0
0.908583 0.566751 0
1 0.547265 0
0 0.753536 0.12285
0.11191 0.752117 0.122438
0.240879 0.750698 0.121691
0.369451 0.749218 0.120531
0.497658 0.747585 0.118898
0.623941 0.747356 0.104509
0.757549 0.748516 0
0.890196 0.712474 0
1 0.689021 0
0 0.878325 0.123583
0.112856 0.876905 0.123156
0.241856 0.875502 0.122438
0.370535 0.874052 0.121416
0.498924 0.872526 0.119997
0.626993 0.870817 0.118166
0.752224 0.872358 0.0880598
0.887922 0.872862 0
1 0.837354 0
0 1 0.124315
0.113802 1 0.123873
0.242832 1 0.123186
0.371603 0.998871 0.12224
0.500099 0.997391 0.120974
0.628336 0.995804 0.119371
0.756237 0.994079 0.117159
0.880949 0.997543 0.0684367
1 0.997208 0
0 0.0542 0.172244
0.0912642 0.0087892 0.233921
0.237446 0.00299077 0.229648
0.367575 0.00173953 0.228595
0.497978 0.000457771 0.227497
0.628489 0 0.226307
0.759075 0 0.225025
0.889769 0 0.223697
1 0 0.222339
0 0.168338 0.156588
0.036286 0.153399 0.201602
0.237842 0.127749 0.230274
0.368139 0.126513 0.229236
0.498863 0.125277 0.228138
0.629786 0.123995 0.226932
0.760815 0.122484 0.225559
0.892927 0.120653 0.224018
1 0.118257 0.222202
0 0.27274 0.197482
0.08542 0.262577 0.214145
0.238193 0.252476 0.230869
0.379965 0.248234 0.225513
0.52195 0.24419 0.220325
0.663996 0.240192 0.215213
0.80589 0.236072 0.209949
0.947601 0.231769 0.204547
1 0.227466 0.19913
0 0.381369 0.231189
0.109407 0.378866 0.231693
0.239094 0.377234 0.231556
0.369177 0.377417 0.20621
0.515724 0.354894 0.175235
0.65536 0.330678 0.154482
0.796582 0.310048 0.136065
0.951873 0.303502 0.129824
1 0.304295 0.130449
0 0.50547 0.232715
0.110796 0.503716 0.232731
0.240131 0.502098 0.232334
0.368856 0.500679 0.231312
0.498863 0.501122 0.180453
0.635279 0.468345 0.129442
0.774212 0.439246 0.103319
0.922713 0.422446 0.0893873
1 0.410849 0.0798657
0 0.630182 0.233707
0.111986 0.628626 0.233661
0.24123 0.627054 0.233188
0.36997 0.625513 0.232227
0.498131 0.62385 0.230564
0.62771 0.624018 0.153964
0.755962 0.58352 0.0857252
0.900771 0.558892 0.0628061
1 0.540093 0.0462806
0 0.75491 0.234546
0.112993 0.753414 0.234424
0.242283 0.751934 0.233997
0.371084 0.750408 0.233112
0.499413 0.748775 0.231678
0.626795 0.747112 0.227451
0.757061 0.747402 0.127916
0.884169 0.705852 0.0484932
1 0.682109 0.0261234
0 0.879652 0.235355
0.113954 0.878187 0.235172
0.243214 0.876738 0.234714
0.372122 0.875257 0.233921
0.500618 0.873701 0.232685
0.628717 0.871946 0.230945
0.754818 0.87155 0.216403
0.887419 0.871748 0.102724
1 0.830625 0.0144503
0 1 0.236133
0.114916 1 0.235889
0.24416 1 0.235431
0.373129 1 0.234684
0.501747 0.998566 0.2336
0.630045 0.996948 0.232105
0.757992 0.995132 0.230167
0.883055 0.996521 0.199924
1 0.996094 0.0775311
0 0.0795605 0.2551
0 0.0492714 0.317281
0.23856 0.00401312 0.342306
0.368368 0.00282292 0.341283
0.498451 0.0016022 0.340261
0.628702 0.000289921 0.339162
0.75906 0 0.338003
0.889525 0 0.336782
1 0 0.335531
0 0.196963 0.235737
0 0.178866 0.284566
0.222583 0.133394 0.346212
0.368826 0.127642 0.34197
0.499046 0.126482 0.341009
0.629541 0.125277 0.339986
0.760067 0.123934 0.338796
0.890654 0.12253 0.337514
1 0.12108 0.336202
0 0.304341 0.236316
0.00794995 0.292973 0.268879
0.167529 0.277928 0.313817
0.36907 0.252277 0.342473
0.499474 0.251133 0.341512
0.63032 0.250034 0.340536
0.761349 0.248844 0.339437
0.892409 0.247349 0.338064
1 0.245518 0.336522
0 0.407568 0.293126
0.0640726 0.397375 0.309773
0.216648 0.387106 0.326345
0.36936 0.376944 0.343023
0.511193 0.372763 0.337713
0.653315 0.368841 0.332647
0.795514 0.364996 0.327657
0.937469 0.360937 0.322454
1 0.356634 0.317052
0 0.510826 0.342779
0.108553 0.506035 0.343526
0.240665 0.503441 0.343938
0.370291 0.501717 0.343725
0.500145 0.501701 0.318196
0.642115 0.47483 0.283299
0.777127 0.446235 0.258595
0.91519 0.422599 0.237476
1 0.41706 0.232151
0 0.632013 0.344656
0.112245 0.630182 0.345068
0.242115 0.628351 0.345022
0.371359 0.626642 0.344549
0.499992 0.625132 0.34345
0.629389 0.624979 0.292042
0.759457 0.586191 0.23563
0.893904 0.552819 0.205661
1 0.534768 0.1906
0 0.756497 0.34583
0.113588 0.754879 0.346044
0.243351 0.753292 0.345968
0.372519 0.751644 0.345449
0.501152 0.750011 0.344396
0.629175 0.748211 0.342596
0.757794 0.747463 0.265187
0.879118 0.700389 0.191012
1 0.673182 0.165789
0 0.881148 0.346807
0.114702 0.879591 0.346883
0.244343 0.878065 0.346746
0.373587 0.876554 0.346273
0.502327 0.874952 0.345327
0.630533 0.873198 0.343786
0.757717 0.871366 0.339391
0.886931 0.870649 0.238941
1 0.823255 0.154269
0 1 0.347692
0.115755 1 0.347692
0.245304 1 0.347478
0.374533 1 0.34699
0.50338 0.999817 0.346136
0.6318 0.998169 0.344854
0.759762 0.996307 0.342992
0.885679 0.995743 0.328298
1 0.994995 0.213764
0 0.104891 0.337942
0 0.0829786 0.380514
0.20679 0.0141604 0.461402
0.369421 0.00386053 0.453941
0.499275 0.00265507 0.452918
0.629297 0.00138857 0.451865
0.759472 9.15541e-05 0.450767
0.889754 0 0.449653
1 0 0.448478
0 0.224521 0.321279
0 0.204334 0.367529
0.100908 0.173999 0.429679
0.370016 0.128756 0.454704
0.49987 0.127611 0.453727
0.630014 0.126436 0.45275
0.760281 0.125139 0.451667
0.890639 0.123781 0.450507
1 0.122393 0.449287
0 0.333394 0.306813
0 0.321721 0.348135
0.0970169 0.303532 0.396902
0.353902 0.258015 0.458488
0.500191 0.252308 0.454292
0.630503 0.25124 0.453422
0.76109 0.250126 0.452476
0.891646 0.248798 0.451301
1 0.247395 0.450019
0 0.440894 0.317556
0 0.429068 0.348699
0.139284 0.417609 0.38117
0.298756 0.402457 0.426017
0.500298 0.376806 0.454688
0.630793 0.375753 0.453803
0.761791 0.374792 0.452949
0.892912 0.373693 0.451926
1 0.372213 0.450568
0 0.54229 0.388693
0.0428473 0.532311 0.405524
0.195422 0.522026 0.42208
0.347875 0.51162 0.438544
0.500526 0.501427 0.455161
0.64242 0.497292 0.449912
0.78468 0.493507 0.444984
0.927016 0.489799 0.440101
1 0.485801 0.434958
0 0.641505 0.454749
0.100114 0.635569 0.455192
0.239933 0.630716 0.455848
0.371939 0.628 0.456168
0.501472 0.626215 0.455879
0.631113 0.625971 0.430167
0.76849 0.594751 0.391348
0.898894 0.561791 0.362707
1 0.535149 0.338888
0 0.759533 0.456092
0.112947 0.756741 0.457038
0.243656 0.754879 0.45742
0.373434 0.752972 0.457313
0.502602 0.751186 0.456764
0.631144 0.749584 0.455573
0.759915 0.748837 0.403647
0.88365 0.704051 0.341817
1 0.666407 0.308003
0 0.882933 0.457786
0.114794 0.881209 0.458198
0.244984 0.879576 0.458396
0.374716 0.877943 0.458289
0.503807 0.876234 0.457694
0.632349 0.87451 0.45658
0.76022 0.872557 0.454643
0.887861 0.870909 0.376394
1 0.817258 0.296315
0 1 0.458915
0.116136 1 0.459159
0.246098 1 0.45922
0.375708 1 0.459068
0.504906 1 0.458549
0.633555 0.999496 0.457542
0.761654 0.997635 0.455894
0.888655 0.995621 0.451347
1 0.993881 0.349981
0 0.130236 0.420783
0 0.110506 0.452552
0.0903487 0.0513161 0.561791
0.368429 0.00537118 0.567407
0.500267 0.00364691 0.56553
0.630121 0.00242618 0.564492
0.760128 0.00117494 0.563439
0.890257 0 0.562371
1 0 0.561273
0 0.251225 0.407736
0 0.229694 0.450401
0.00889601 0.207782 0.492973
0.338354 0.138979 0.573877
0.500999 0.128695 0.56643
0.630854 0.127504 0.565408
0.760876 0.126238 0.56437
0.891035 0.124941 0.563287
1 0.123598 0.562142
0 0.362249 0.383276
0 0.349325 0.433707
0.0264897 0.329122 0.479957
0.232349 0.298726 0.542062
0.501472 0.253498 0.567102
0.631388 0.252415 0.566171
0.761578 0.251286 0.565255
0.891859 0.250004 0.564172
1 0.248646 0.563012
0 0.4692 0.385626
0 0.458183 0.419226
0.0594492 0.446479 0.460533
0.228382 0.428199 0.509224
0.485222 0.382635 0.570779
0.631556 0.376974 0.566613
0.761975 0.375998 0.56582
0.892653 0.374975 0.564965
1 0.373663 0.563806
0 0.577813 0.398795
0 0.565667 0.429969
0.119295 0.553811 0.461082
0.270634 0.542245 0.493462
0.429984 0.526986 0.538216
0.631525 0.501335 0.566888
0.762112 0.500389 0.566094
0.893263 0.49955 0.565347
1 0.498543 0.564416
0 0.676966 0.48423
0.0214237 0.667048 0.501106
0.174304 0.657053 0.517922
0.326772 0.646677 0.534386
0.479088 0.636149 0.550744
0.631678 0.625895 0.567315
0.773648 0.62182 0.562112
0.91606 0.618173 0.557305
1 0.614603 0.552544
0 0.773114 0.565454
0.0866712 0.766262 0.567147
0.231571 0.760311 0.56759
0.371298 0.755383 0.56817
0.503197 0.752575 0.568399
0.632654 0.750698 0.568048
0.762066 0.750256 0.542138
0.894865 0.714687 0.499413
1 0.677348 0.466819
0 0.88835 0.567437
0.110277 0.884276 0.56849
0.244388 0.881468 0.569421
0.375051 0.879576 0.569787
0.504768 0.877592 0.569589
0.633829 0.875731 0.568963
0.76228 0.874022 0.567712
0.890425 0.872694 0.515251
1 0.821897 0.44799
0 1 0.569497
0.115602 1 0.570169
0.24622 1 0.570565
0.376394 1 0.570748
0.506081 1 0.570611
0.635096 1 0.569955
0.763546 0.999008 0.56875
0.891264 0.996918 0.56669
1 0.994339 0.487617
0 0.155566 0.503624
0 0.135988 0.530159
0 0.095079 0.628061
0.322301 0.0194705 0.688838
0.501381 0.00460822 0.678157
0.631098 0.00343328 0.677119
0.760967 0.00221256 0.676081
0.890959 0.000946059 0.675029
1 0 0.673976
0 0.277363 0.49369
0 0.255024 0.533242
0 0.235309 0.565026
0.221897 0.17615 0.674281
0.500008 0.130205 0.679911
0.631846 0.128496 0.678035
0.7617 0.127275 0.676997
0.891707 0.126024 0.675944
1 0.124727 0.674876
0 0.390448 0.464927
0 0.376028 0.52018
0 0.354513 0.56286
0.140414 0.332601 0.605432
0.469902 0.263813 0.686351
0.632547 0.253529 0.678904
0.762417 0.252369 0.677913
0.892454 0.251102 0.67686
1 0.249805 0.675792
0 0.498329 0.456916
0 0.487037 0.49572
0 0.474113 0.546151
0.157992 0.453895 0.592401
0.363806 0.423468 0.654444
0.632944 0.378256 0.679515
0.76289 0.377203 0.678614
0.893156 0.376135 0.677745
1 0.374868 0.676677
0 0.605249 0.466148
0 0.593973 0.498039
0.0406043 0.582956 0.531655
0.190906 0.571237 0.572946
0.359762 0.552865 0.621546
0.616556 0.507256 0.683055
0.762921 0.501625 0.678935
0.893431 0.50074 0.678233
1 0.499809 0.67744
0 0.714916 0.480201
0 0.702571 0.511208
0.0966659 0.690425 0.542382
0.250736 0.678538 0.573465
0.401968 0.66688 0.605753
0.561212 0.65153 0.650431
0.762753 0.625864 0.679088
0.893446 0.62501 0.678386
1 0.624308 0.67776
0 0.811658 0.579751
0 0.80174 0.596628
0.152895 0.791806 0.613519
0.30576 0.781796 0.63032
0.458122 0.771313 0.646693
0.610315 0.760678 0.662943
0.762844 0.750362 0.679454
0.904875 0.746349 0.674311
1 0.74284 0.669627
0 0.905516 0.673182
0.0704662 0.897871 0.677867
0.218128 0.89102 0.679561
0.363027 0.885069 0.679988
0.502678 0.880049 0.680507
0.63447 0.877134 0.680629
0.763836 0.875196 0.680217
0.893034 0.87454 0.654124
1 0.834607 0.607462
0 1 0.679026
0.103258 1 0.679835
0.241733 1 0.680888
0.37583 1 0.681804
0.506462 1 0.682139
0.636088 1 0.68188
0.765072 1 0.681178
0.893431 0.998474 0.679835
1 0.996567 0.626841
0 0.180896 0.586465
0 0.160739 0.610697
0 0.131289 0.689204
0.214084 0.0534218 0.796582
0.491981 0.00833143 0.794339
0.632181 0.0043946 0.789731
0.761944 0.00320439 0.788693
0.891814 0.00198367 0.787655
1 0.000732433 0.786618
0 0.303212 0.579049
0 0.280369 0.616083
0 0.260792 0.642618
0.0946975 0.219898 0.740551
0.453864 0.14432 0.801328
0.632959 0.129442 0.790646
0.762676 0.128267 0.789609
0.892546 0.127062 0.788586
1 0.125795 0.787533
0 0.418143 0.549661
0 0.402182 0.606134
0 0.379843 0.645701
0.0659648 0.360128 0.677501
0.353445 0.300984 0.78677
0.631571 0.25507 0.792401
0.763409 0.253361 0.790539
0.893278 0.25214 0.789502
1 0.250889 0.788449
0 0.527276 0.532357
0 0.515236 0.577371
0 0.500816 0.632624
0.0872816 0.479316 0.675319
0.271946 0.45742 0.717891
0.60145 0.388647 0.798825
0.764111 0.378378 0.791394
0.893996 0.377234 0.790417
1 0.375967 0.789364
0 0.634073 0.535424
0 0.623102 0.569345
0 0.611811 0.608148
0.112032 0.598917 0.658595
0.289479 0.578683 0.704829
0.495247 0.548211 0.766827
0.764401 0.502998 0.791913
0.894392 0.502007 0.791058
1 0.500984 0.790234
0 0.741588 0.547402
0 0.730022 0.578561
0.0210117 0.718746 0.610452
0.172107 0.707744 0.644083
0.322377 0.695994 0.685344
0.491127 0.677531 0.733867
0.747875 0.631876 0.795346
0.894286 0.626291 0.791257
1 0.625498 0.790631
0 0.851759 0.563806
0 0.839673 0.592599
0.0725109 0.827329 0.623606
0.228138 0.815198 0.654795
0.382177 0.803281 0.685847
0.533303 0.791516 0.718059
0.692439 0.776059 0.762631
0.89398 0.750393 0.791287
1 0.74963 0.790677
0 0.946349 0.675288
0 0.936416 0.692164
0.131426 0.926497 0.709041
0.284367 0.916579 0.725933
0.437217 0.906538 0.742718
0.589471 0.895964 0.759014
0.741543 0.885206 0.775128
0.894011 0.87483 0.791608
1 0.870878 0.786511
0 1 0.778119
0.0525521 1 0.785595
0.201938 1 0.79028
0.349599 1 0.791974
0.494484 1 0.792386
0.634043 1 0.792828
0.765728 1 0.792874
0.895018 0.99968 0.792386
1 0.99881 0.766094
0 0.206226 0.669306
0 0.185489 0.692271
0 0.162402 0.754467
0.0797742 0.0979934 0.875731
0.437781 0.0247807 0.916259
0.633021 0.00541695 0.90251
0.763012 0.00416571 0.901305
0.892775 0.00297551 0.900282
1 0.00175479 0.899245
0 0.328893 0.663874
0 0.305699 0.698924
0 0.285542 0.723171
0 0.256092 0.801694
0.345632 0.178256 0.909072
0.623545 0.133165 0.906828
0.76376 0.129229 0.902235
0.893507 0.128054 0.901198
1 0.126833 0.90016
0 0.445502 0.635966
0 0.428031 0.691478
0 0.405173 0.728542
0 0.385611 0.755093
0.226261 0.344732 0.853025
0.585443 0.269169 0.913832
0.764538 0.254307 0.903151
0.894255 0.253132 0.902113
1 0.251911 0.901076
0 0.555795 0.61178
0 0.542947 0.662089
0 0.526986 0.718578
0.016495 0.504662 0.75816
0.197498 0.484962 0.78996
0.485008 0.425834 0.89926
0.763149 0.379934 0.904906
0.894987 0.37821 0.903029
1 0.377005 0.902007
0 0.663249 0.607034
0 0.652064 0.644785
0 0.640024 0.689815
0.0354314 0.62562 0.745068
0.218814 0.604135 0.787778
0.403479 0.582223 0.83035
0.732998 0.513466 0.911299
0.895674 0.503227 0.903883
1 0.502098 0.902922
0 0.770001 0.615259
0 0.758846 0.647852
0 0.74789 0.681773
0.091722 0.736599 0.720577
0.243534 0.723705 0.771038
0.420981 0.703471 0.817258
0.626688 0.672938 0.879225
0.895857 0.627756 0.904311
1 0.62681 0.903502
0 0.878264 0.628519
0 0.866361 0.659815
3.0518e-05 0.854795 0.690974
0.152499 0.843519 0.722881
0.303593 0.832517 0.756512
0.453834 0.820737 0.797757
0.622507 0.802197 0.846204
0.879194 0.756497 0.907622
1 0.750957 0.903578
0 0.988174 0.650263
0 0.976516 0.676219
0.0476387 0.964431 0.705013
0.203967 0.952102 0.736019
0.359609 0.939956 0.767208
0.513619 0.928008 0.79823
0.664637 0.916152 0.83035
0.823667 0.900587 0.87483
1 0.874922 0.903487
0 1 0.770809
0 1 0.787686
0.109941 1 0.804578
0.262898 1 0.821454
0.415839 1 0.838331
0.568658 1 0.855116
0.720821 1 0.871321
0.872755 1 0.887327
1 0.999298 0.903746
