Vlog/LUT/cinematic-teal-and-orange-camila-ballell/Assets/Teal&Orange.cube
TITLE "Generated by Resolve"
LUT_3D_SIZE 5
0 0.00355535 0.0065919
0.259205 0 0
0.542733 0 0
0.826154 0 0
1 0 0
0 0.253025 0.00793469
0.237827 0.253391 0
0.534829 0.21207 0
0.838163 0.186496 0
1 0.165103 0
0 0.502708 0.00946059
0.237171 0.499916 0.00747692
0.497337 0.500938 0
0.787045 0.451408 0
1 0.417731 0
0 0.7523 0.0108949
0.239353 0.749554 0.00924697
0.495995 0.746517 0.00616464
0.758053 0.74963 0
1 0.69456 0
0 1 0.0123293
0.241382 0.999146 0.0108339
0.498466 0.996277 0.00833143
0.753933 0.993637 0.000488289
1 0.998322 0
0 0.0542 0.172244
0.237446 0.00299077 0.229648
0.497978 0.000457771 0.227497
0.759075 0 0.225025
1 0 0.222339
0 0.27274 0.197482
0.238193 0.252476 0.230869
0.52195 0.24419 0.220325
0.80589 0.236072 0.209949
1 0.227466 0.19913
0 0.50547 0.232715
0.240131 0.502098 0.232334
0.498863 0.501122 0.180453
0.774212 0.439246 0.103319
1 0.410849 0.0798657
0 0.75491 0.234546
0.242283 0.751934 0.233997
0.499413 0.748775 0.231678
0.757061 0.747402 0.127916
1 0.682109 0.0261234
0 1 0.236133
0.24416 1 0.235431
0.501747 0.998566 0.2336
0.757992 0.995132 0.230167
1 0.996094 0.0775311
0 0.104891 0.337942
0.20679 0.0141604 0.461402
0.499275 0.00265507 0.452918
0.759472 9.15541e-05 0.450767
1 0 0.448478
0 0.333394 0.306813
0.0970169 0.303532 0.396902
0.500191 0.252308 0.454292
0.76109 0.250126 0.452476
1 0.247395 0.450019
0 0.54229 0.388693
0.195422 0.522026 0.42208
0.500526 0.501427 0.455161
0.78468 0.493507 0.444984
1 0.485801 0.434958
0 0.759533 0.456092
0.243656 0.754879 0.45742
0.502602 0.751186 0.456764
0.759915 0.748837 0.403647
1 0.666407 0.308003
0 1 0.458915
0.246098 1 0.45922
0.504906 1 0.458549
0.761654 0.997635 0.455894
1 0.993881 0.349981
0 0.155566 0.503624
0 0.095079 0.628061
0.501381 0.00460822 0.678157
0.760967 0.00221256 0.676081
1 0 0.673976
0 0.390448 0.464927
0 0.354513 0.56286
0.469902 0.263813 0.686351
0.762417 0.252369 0.677913
1 0.249805 0.675792
0 0.605249 0.466148
0.0406043 0.582956 0.531655
0.359762 0.552865 0.621546
0.762921 0.501625 0.678935
1 0.499809 0.67744
0 0.811658 0.579751
0.152895 0.791806 0.613519
0.458122 0.771313 0.646693
0.762844 0.750362 0.679454
1 0.74284 0.669627
0 1 0.679026
0.241733 1 0.680888
0.506462 1 0.682139
0.765072 1 0.681178
1 0.996567 0.626841
0 0.206226 0.669306
0 0.162402 0.754467
0.437781 0.0247807 0.916259
0.763012 0.00416571 0.901305
1 0.00175479 0.899245
0 0.445502 0.635966
0 0.405173 0.728542
0.226261 0.344732 0.853025
0.764538 0.254307 0.903151
1 0.251911 0.901076
0 0.663249 0.607034
0 0.640024 0.689815
0.218814 0.604135 0.787778
0.732998 0.513466 0.911299
1 0.502098 0.902922
0 0.878264 0.628519
3.0518e-05 0.854795 0.690974
0.303593 0.832517 0.756512
0.622507 0.802197 0.846204
1 0.750957 0.903578
0 1 0.770809
0.109941 1 0.804578
0.415839 1 0.838331
0.720821 1 0.871321
1 0.999298 0.903746
