Vlog/LUT/cinematic-teal-and-orange-camila-ballell/Assets/Teal&Orange.cube
TITLE "Generated by Resolve"
LUT_3D_SIZE 33
0 0.00355535 0.0065919
0.0112764 0.0024567 0.00521859
0.0466926 0.00137331 0.00386053
0.0820935 0.000274662 0.00248722
0.11751 0 0.00111391
0.152926 0 0
0.188357 0 0
0.223774 0 0
0.259205 0 0
0.294652 0 0
0.330083 0 0
0.36553 0 0
0.400977 0 0
0.436408 0 0
0.471855 0 0
0.507301 0 0
0.542733 0 0
0.578149 0 0
0.613581 0 0
0.649012 0 0
0.684443 0 0
0.719875 0 0
0.755291 0 0
0.790722 0 0
0.826154 0 0
0.861585 0 0
0.897017 0 0
0.932433 0 0
0.967865 0 0
1 0 0
1 0 0
1 0 0
1 0 0
0 0.0347143 0.00674449
0.00875868 0.0349126 0.000549325
0.0489052 0.0326085 0
0.0877241 0.0302739 0
0.126024 0.0279393 0
0.164141 0.0256504 0
0.20177 0.0236667 0
0.238911 0.0220188 0
0.275685 0.0206302 0
0.312154 0.0193484 0
0.348363 0.0181582 0
0.384436 0.0170138 0
0.420356 0.0159152 0
0.456184 0.0148318 0
0.491936 0.0137636 0
0.527626 0.0127108 0
0.563272 0.0116579 0
0.598886 0.0106203 0
0.63444 0.00956741 0
0.669978 0.00851453 0
0.705486 0.00746166 0
0.740978 0.00639353 0
0.776455 0.00534066 0
0.811841 0.00428778 0
0.847181 0.00325017 0
0.882521 0.00221256 0
0.917845 0.0011902 0
0.953277 0.000106813 0
0.988769 0 0
1 0 0
1 0 0
1 0 0
1 0 0
0 0.0658885 0.00691234
0.00856031 0.0656138 0.00671397
0.0416419 0.0662699 0
0.0818799 0.0639048 0
0.12134 0.0610971 0
0.159945 0.05832 0
0.198001 0.0554971 0
0.235721 0.0525673 0
0.273182 0.0495155 0
0.310658 0.04654 0
0.348272 0.0438239 0
0.385824 0.0415351 0
0.423346 0.0396735 0
0.460838 0.0382086 0
0.498222 0.0369726 0
0.535576 0.0360113 0
0.572778 0.0351263 0
0.609827 0.0343328 0
0.646708 0.0335241 0
0.68336 0.0326696 0
0.719844 0.0317845 0
0.756176 0.030869 0
0.792401 0.0299229 0
0.828504 0.0289616 0
0.86453 0.0279698 0
0.900465 0.026978 0
0.936355 0.0259709 0
0.972168 0.0249485 0
1 0.0239261 0
1 0.0229038 0
1 0.0218662 0
1 0.0208286 0
1 0.0197757 0
0 0.0970626 0.00706493
0.0087892 0.0967727 0.00691234
0.0409857 0.0965133 0.00662242
0.074464 0.0975814 0
0.114534 0.0950484 0
0.153933 0.0919356 0
0.192767 0.0886397 0
0.230945 0.0853437 0
0.268635 0.0819867 0
0.305974 0.0785382 0
0.343069 0.0750134 0
0.380026 0.0714275 0
0.416892 0.0678111 0
0.453986 0.0644541 0
0.491447 0.0614939 0
0.52929 0.0590219 0
0.56733 0.0571298 0
0.605631 0.0558022 0
0.644083 0.054902 0
0.682414 0.0541695 0
0.720562 0.0534981 0
0.75845 0.052781 0
0.796262 0.0522011 0
0.833799 0.0515297 0
0.871138 0.0508278 0
0.908278 0.0500954 0
0.945266 0.0493172 0
0.982132 0.0485084 0
1 0.0476692 0
1 0.0467994 0
1 0.0458991 0
1 0.0449989 0
1 0.0440528 0
0 0.128252 0.00723278
0.00901808 0.127947 0.00708019
0.0412299 0.127672 0.00683604
0.0733196 0.127474 0.00598154
0.107256 0.128862 0
0.14696 0.125994 0
0.186099 0.12256 0
0.224796 0.118868 0
0.262974 0.115038 0
0.300664 0.111192 0
0.337957 0.107332 0
0.374975 0.103456 0
0.411826 0.0995804 0
0.4486 0.0957351 0
0.48539 0.0919509 0
0.522271 0.0883192 0
0.559365 0.0849317 0
0.596994 0.0820783 0
0.635233 0.0798505 0
0.673838 0.0779736 0
0.71252 0.0763714 0
0.751186 0.0749981 0
0.789792 0.0738537 0
0.828351 0.0728618 0
0.866819 0.0720073 0
0.90518 0.0712749 0
0.943404 0.070573 0
0.981476 0.0699168 0
1 0.0691844 0
1 0.0686046 0
1 0.0679789 0
1 0.0672923 0
1 0.0665904 0
0 0.159442 0.00740063
0.00923171 0.159121 0.00724804
0.041474 0.158831 0.00703441
0.0736553 0.158556 0.00674449
0.10544 0.158694 0.00332647
0.139986 0.160082 0
0.179187 0.156802 0
0.217975 0.152972 0
0.256413 0.148913 0
0.294392 0.14464 0
0.331975 0.140291 0
0.369223 0.135973 0
0.406226 0.131746 0
0.443061 0.127596 0
0.47985 0.123552 0
0.516701 0.119677 0
0.553704 0.116045 0
0.590982 0.112718 0
0.628626 0.109789 0
0.666514 0.107134 0
0.704433 0.104524 0
0.742535 0.102129 0
0.78085 0.0999313 0
0.819348 0.0979477 0
0.858 0.0961471 0
0.896681 0.0945754 0
0.935347 0.0931716 0
0.973968 0.0919509 0
1 0.090898 0
1 0.0899672 0
1 0.089128 0
1 0.0883803 0
1 0.0876783 0
0 0.190631 0.00756847
0.00947585 0.190311 0.00743114
0.0417029 0.190005 0.00723278
0.0738994 0.189715 0.00695811
0.106065 0.189441 0.00662242
0.137575 0.190005 0
0.172671 0.191241 0
0.211231 0.187503 0
0.249561 0.183108 0
0.287709 0.178744 0
0.325444 0.174105 0
0.362844 0.169329 0
0.399985 0.164584 0
0.436957 0.159976 0
0.473838 0.155566 0
0.510735 0.151385 0
0.547753 0.147478 0
0.585 0.143908 0
0.622614 0.14078 0
0.660563 0.138018 0
0.698512 0.135317 0
0.736431 0.132631 0
0.774334 0.129961 0
0.812222 0.127306 0
0.850141 0.124712 0
0.888228 0.122301 0
0.926497 0.120058 0
0.96492 0.117998 0
1 0.116075 0
1 0.114351 0
1 0.112779 0
1 0.111376 0
1 0.110109 0
0 0.22182 0.00775158
0.00970474 0.2215 0.00759899
0.0419471 0.221195 0.00741588
0.0741436 0.22089 0.00715648
0.10631 0.2206 0.0068513
0.13843 0.22031 0.00642405
0.169802 0.221347 0
0.20528 0.222354 0
0.243168 0.218128 0
0.280919 0.213031 0
0.318776 0.208377 0
0.356268 0.203433 0
0.393454 0.198337 0
0.430472 0.19324 0
0.467399 0.188312 0
0.504341 0.183673 0
0.541421 0.1794 0
0.578714 0.175509 0
0.616327 0.172122 0
0.654337 0.169192 0
0.692378 0.166384 0
0.730373 0.163622 0
0.768353 0.160891 0
0.806302 0.158175 0
0.844236 0.155489 0
0.882155 0.152819 0
0.920043 0.150149 0
0.957931 0.147494 0
0.99585 0.144915 0
1 0.142489 0
1 0.1402 0
1 0.138079 0
1 0.136095 0
0 0.253025 0.00793469
0.00993362 0.252705 0.0077821
0.0421759 0.252384 0.00759899
0.0743877 0.252079 0.00735485
0.106569 0.251774 0.00706493
0.138705 0.251469 0.00672923
0.170626 0.251301 0.00527962
0.202106 0.252705 0
0.237827 0.253391 0
0.275059 0.248707 0
0.312139 0.242832 0
0.34963 0.237827 0
0.386908 0.232654 0
0.423957 0.227329 0
0.460868 0.221988 0
0.49778 0.216861 0
0.534829 0.21207 0
0.572122 0.207752 0
0.609781 0.203967 0
0.647852 0.200778 0
0.685985 0.197803 0
0.724086 0.194888 0
0.762142 0.19205 0
0.800168 0.189258 0
0.838163 0.186496 0
0.876143 0.183749 0
0.914092 0.181048 0
0.952041 0.178347 0
0.989944 0.175662 0
1 0.172992 0
1 0.170336 0
1 0.167681 0
1 0.165103 0
0 0.28423 0.0081178
0.0101778 0.283894 0.00796521
0.0424201 0.283574 0.0077821
0.0746471 0.283253 0.00755322
0.106813 0.282948 0.00727855
0.138964 0.282628 0.00695811
0.171084 0.282307 0.00657664
0.202686 0.282414 0.00297551
0.23447 0.284031 0
0.270314 0.284382 0
0.306935 0.279271 0
0.343313 0.272618 0
0.380377 0.26717 0
0.417502 0.26183 0
0.454444 0.256367 0
0.491325 0.250919 0
0.528298 0.245701 0
0.565515 0.240879 0
0.603113 0.236622 0
0.641169 0.233021 0
0.679362 0.229725 0
0.717556 0.226581 0
0.755688 0.22356 0
0.793805 0.220615 0
0.831876 0.217746 0
0.869932 0.214908 0
0.907958 0.212116 0
0.945953 0.209354 0
0.983917 0.206622 0
1 0.203906 0
1 0.201205 0
1 0.19852 0
1 0.19585 0
0 0.31545 0.00831617
0.0104219 0.315099 0.00816358
0.0426795 0.314778 0.00798047
0.0748913 0.314458 0.00775158
0.107073 0.314137 0.00749218
0.139223 0.313817 0.00717174
0.171344 0.313481 0.00682078
0.203433 0.31313 0.00639353
0.23473 0.313588 0
0.26688 0.315343 0
0.302754 0.315343 0
0.338827 0.309819 0
0.374487 0.302449 0
0.411048 0.296468 0
0.448081 0.291005 0
0.484993 0.285481 0
0.521965 0.280079 0
0.559091 0.274907 0
0.596567 0.270222 0
0.634531 0.266148 0
0.672679 0.262409 0
0.710842 0.2589 0
0.749035 0.255573 0
0.787228 0.252399 0
0.825391 0.249332 0
0.863523 0.246357 0
0.90161 0.243458 0
0.939681 0.240589 0
0.977722 0.237766 0
1 0.234989 0
1 0.232227 0
1 0.229496 0
1 0.226764 0
0 0.346654 0.00849927
0.0106813 0.346319 0.00834669
0.0429236 0.345983 0.00816358
0.0751354 0.345647 0.00794995
0.107332 0.345327 0.00769055
0.139483 0.344991 0.00738537
0.171618 0.344671 0.00704967
0.203708 0.34432 0.00665293
0.235691 0.343999 0.00582895
0.266773 0.344808 0
0.299321 0.346624 0
0.335164 0.346258 0
0.370748 0.340398 0
0.405753 0.332403 0
0.44181 0.325826 0
0.478767 0.320302 0
0.515755 0.314839 0
0.552895 0.309545 0
0.590326 0.304616 0
0.628153 0.300145 0
0.666148 0.295964 0
0.704219 0.292012 0
0.742367 0.288289 0
0.780529 0.284779 0
0.818723 0.281422 0
0.856916 0.278218 0
0.895079 0.275135 0
0.933227 0.272114 0
0.971328 0.269184 0
1 0.266285 0
1 0.263447 0
1 0.260624 0
1 0.257847 0
0 0.377874 0.00869764
0.0109255 0.377523 0.00854505
0.043183 0.377188 0.00836194
0.0753948 0.376852 0.00814832
0.107576 0.376516 0.00790417
0.139742 0.376196 0.00761425
0.171878 0.375845 0.00727855
0.203983 0.375494 0.00689708
0.236042 0.375128 0.00648508
0.267796 0.374975 0.00444038
0.298833 0.376059 0
0.331777 0.377874 0
0.367559 0.377142 0
0.402777 0.371054 0
0.437186 0.362539 0
0.472831 0.355428 0
0.509667 0.349798 0
0.546868 0.344518 0
0.584268 0.339467 0
0.622049 0.334813 0
0.659892 0.330297 0
0.697795 0.325948 0
0.735805 0.321813 0
0.773892 0.317891 0
0.812024 0.314183 0
0.850217 0.310658 0
0.888395 0.307286 0
0.926589 0.304051 0
0.964767 0.300938 0
1 0.297902 0
1 0.294926 0
1 0.292012 0
1 0.289143 0
0 0.409094 0.00889601
0.0111849 0.408743 0.00874342
0.0434272 0.408392 0.00856031
0.0756542 0.408057 0.00834669
0.107836 0.407721 0.00810254
0.140002 0.407385 0.00781262
0.172137 0.407034 0.00750744
0.204257 0.406683 0.00714122
0.236332 0.406332 0.00674449
0.268376 0.405936 0.00628672
0.29984 0.406043 0.00224308
0.330953 0.407324 0
0.364248 0.409079 0
0.399939 0.408042 0
0.434867 0.401785 0
0.468864 0.39292 0
0.504189 0.385367 0
0.540917 0.379629 0
0.578408 0.374609 0
0.616083 0.369802 0
0.653819 0.365087 0
0.691646 0.360525 0
0.729519 0.356054 0
0.767468 0.351751 0
0.805478 0.347662 0
0.843565 0.343771 0
0.881712 0.340063 0
0.91989 0.336522 0
0.958068 0.33315 0
0.996262 0.329885 0
1 0.326741 0
1 0.323674 0
1 0.320684 0
0 0.440299 0.00907912
0.0114443 0.439948 0.00892653
0.0436866 0.439612 0.00875868
0.0758984 0.439261 0.00854505
0.10811 0.438926 0.00830091
0.140276 0.43859 0.00802625
0.172412 0.438239 0.00772107
0.204532 0.437888 0.00737011
0.236606 0.437522 0.00698863
0.268666 0.43714 0.00656138
0.300664 0.436744 0.00596628
0.331823 0.43714 0
0.363119 0.438575 0
0.396719 0.440269 0
0.432349 0.438956 0
0.467124 0.432624 0
0.500877 0.423606 0
0.535988 0.415778 0
0.572656 0.409918 0
0.610254 0.40502 0
0.647944 0.400198 0
0.685649 0.395422 0
0.723445 0.390784 0
0.761257 0.386236 0
0.799146 0.381826 0
0.83711 0.377584 0
0.875166 0.373526 0
0.913237 0.36965 0
0.951385 0.365957 0
0.989563 0.362417 0
1 0.359014 0
1 0.355734 0
1 0.352575 0
0 0.471519 0.00927749
0.0116884 0.471168 0.0091249
0.0439307 0.470817 0.00895705
0.0761578 0.470481 0.00874342
0.108354 0.47013 0.00851453
0.140536 0.469795 0.00823987
0.172671 0.469444 0.00794995
0.204807 0.469078 0.00759899
0.236896 0.468711 0.00723278
0.268956 0.468345 0.00682078
0.300999 0.467933 0.00636301
0.33283 0.467643 0.00505074
0.363821 0.468299 0
0.395315 0.469871 0
0.429206 0.471443 0
0.464805 0.469902 0
0.499504 0.463615 0
0.533242 0.454643 0
0.568246 0.446632 0
0.604654 0.440436 0
0.642145 0.435416 0
0.679805 0.430594 0
0.717479 0.425772 0
0.755215 0.421073 0
0.793057 0.41648 0
0.830884 0.411978 0
0.868803 0.407614 0
0.906767 0.403418 0
0.944823 0.39939 0
0.982925 0.395529 0
1 0.391836 0
1 0.388296 0
1 0.384878 0
0 0.502708 0.00946059
0.0119326 0.502373 0.009308
0.0441901 0.502022 0.00914015
0.0764172 0.501686 0.00894179
0.108614 0.501335 0.0087129
0.140795 0.500984 0.0084535
0.172946 0.500633 0.00816358
0.205066 0.500282 0.00782788
0.237171 0.499916 0.00747692
0.269245 0.49955 0.00708019
0.301289 0.499153 0.00663767
0.333318 0.498741 0.00616464
0.36492 0.498619 0.00355535
0.39585 0.499504 0
0.427588 0.501167 0
0.461738 0.502602 0
0.497337 0.500938 0
0.532128 0.494789 0
0.565866 0.485924 0
0.600595 0.477623 0
0.636744 0.471061 0
0.674022 0.465843 0
0.71165 0.46099 0
0.74934 0.456184 0
0.787045 0.451408 0
0.824842 0.446769 0
0.862654 0.442191 0
0.900511 0.437736 0
0.938445 0.433417 0
0.97644 0.429252 0
1 0.425254 0
1 0.421408 0
1 0.417731 0
0 0.533913 0.0096437
0.0121767 0.533578 0.00949111
0.0444343 0.533227 0.00932326
0.0766613 0.532891 0.0091249
0.108873 0.53254 0.00891127
0.141054 0.532189 0.00865187
0.173205 0.531838 0.0083772
0.205341 0.531487 0.00805676
0.237461 0.531121 0.00770581
0.269535 0.530755 0.00732433
0.301595 0.530358 0.00691234
0.333623 0.529961 0.00645457
0.365621 0.529534 0.00595102
0.396963 0.529671 0.00144961
0.427909 0.530755 0
0.459922 0.532494 0
0.494285 0.533776 0
0.529915 0.532021 0
0.564752 0.525979 0
0.598505 0.517189 0
0.633005 0.508675 0
0.66891 0.501778 0
0.705913 0.4963 0
0.743511 0.491386 0
0.781186 0.486564 0
0.818875 0.481758 0
0.856611 0.477058 0
0.894423 0.472465 0
0.932265 0.467918 0
0.970153 0.463508 0
1 0.45922 0
1 0.4551 0
1 0.451118 0
0 0.565118 0.00981155
0.0124056 0.564767 0.00967422
0.0446632 0.564431 0.00950637
0.0769055 0.56408 0.009308
0.109117 0.563745 0.00909438
0.141314 0.563394 0.00885023
0.17348 0.563043 0.00857557
0.205615 0.562692 0.00827039
0.237736 0.562325 0.00794995
0.269825 0.561959 0.00758373
0.3019 0.561578 0.00717174
0.333944 0.561181 0.00674449
0.365957 0.560769 0.00627146
0.397879 0.560403 0.00537118
0.429007 0.560784 0
0.460014 0.562036 0
0.492317 0.563836 0
0.526864 0.564965 0
0.562509 0.563104 0
0.597391 0.557183 0
0.631144 0.548486 0
0.665461 0.539788 0
0.701122 0.532555 0
0.737835 0.526757 0
0.775372 0.521798 0
0.813046 0.51696 0
0.850752 0.512169 0
0.888441 0.507378 0
0.926223 0.502754 0
0.96405 0.498161 0
1 0.49366 0
1 0.489296 0
1 0.485054 0
0 0.596307 0.00999466
0.0126497 0.595972 0.00985733
0.0449073 0.595621 0.00968948
0.0771496 0.595285 0.00950637
0.109377 0.594934 0.00929274
0.141558 0.594598 0.0090486
0.173739 0.594247 0.0087892
0.20589 0.593896 0.00849927
0.23801 0.59353 0.00817884
0.270115 0.593164 0.00781262
0.302205 0.592782 0.00743114
0.334264 0.592401 0.00701915
0.366293 0.592004 0.00657664
0.398306 0.591577 0.00608835
0.430045 0.591348 0.00428778
0.461036 0.591959 0
0.492164 0.593332 0
0.524727 0.595163 0
0.559426 0.59617 0
0.595102 0.594186 0
0.630014 0.588357 0
0.663813 0.579767 0
0.697948 0.570932 0
0.733379 0.563409 0
0.769863 0.557305 0
0.807263 0.552209 0
0.844907 0.547356 0
0.882582 0.54255 0
0.920272 0.537743 0
0.957992 0.533043 0
0.995834 0.528435 0
1 0.523873 0
1 0.519417 0
0 0.627512 0.0101778
0.0128786 0.627161 0.0100252
0.0451514 0.626825 0.00987259
0.0773938 0.626474 0.00968948
0.109621 0.626139 0.00947585
0.141802 0.625803 0.00924697
0.173983 0.625452 0.00898756
0.206149 0.625101 0.00869764
0.238285 0.624735 0.00839246
0.270405 0.624369 0.00805676
0.30248 0.624002 0.00769055
0.334554 0.623621 0.00729381
0.366613 0.623224 0.0068513
0.398642 0.622827 0.00639353
0.43064 0.6224 0.00590524
0.46215 0.622354 0.00277714
0.493065 0.623148 0
0.524361 0.624628 0
0.557198 0.626505 0
0.59202 0.627359 0
0.627695 0.625284 0
0.662654 0.619532 0
0.696452 0.611048 0
0.730495 0.602121 0
0.765698 0.594324 0
0.801953 0.587945 0
0.839155 0.582666 0
0.876768 0.577768 0
0.914443 0.572931 0
0.952117 0.568139 0
0.989837 0.563363 0
1 0.558709 0
1 0.554131 0
0 0.658701 0.0103456
0.0131228 0.658366 0.0102083
0.0453803 0.658015 0.0100557
0.0776379 0.657679 0.00987259
0.109865 0.657343 0.00965896
0.142061 0.656992 0.00943008
0.174243 0.656641 0.00918593
0.206409 0.656291 0.00891127
0.238544 0.65594 0.00862135
0.270665 0.655589 0.00828565
0.302785 0.655207 0.00793469
0.334859 0.654841 0.00753796
0.366918 0.654444 0.00712596
0.398962 0.654047 0.00668345
0.430976 0.653635 0.00622568
0.462928 0.653239 0.00553903
0.494209 0.653422 0.000717174
0.525124 0.654383 0
0.556573 0.65594 0
0.58967 0.657832 0
0.624598 0.658518 0
0.660288 0.656367 0
0.695262 0.650706 0
0.729076 0.642267 0
0.763043 0.633326 0
0.798047 0.625315 0
0.834104 0.618647 0
0.871046 0.613092 0
0.908629 0.608179 0
0.946288 0.603342 0
0.983978 0.598535 0
1 0.593713 0
1 0.589014 0
0 0.689906 0.0105287
0.0133516 0.689555 0.0103914
0.0456245 0.689219 0.0102388
0.0778821 0.688884 0.0100557
0.110109 0.688533 0.00985733
0.142306 0.688197 0.00962844
0.174502 0.687846 0.0093843
0.206668 0.687495 0.0091249
0.238819 0.687144 0.00881971
0.270954 0.686778 0.00851453
0.303059 0.686427 0.00816358
0.335149 0.686046 0.00779736
0.367224 0.685664 0.00740063
0.399268 0.685267 0.00697337
0.431296 0.684871 0.0065156
0.46331 0.684459 0.00604257
0.495155 0.684138 0.00476081
0.526268 0.684535 0
0.557183 0.685634 0
0.588815 0.687282 0
0.622171 0.689143 0
0.657191 0.689677 0
0.692882 0.687449 0
0.727886 0.681865 0
0.761761 0.673579 0
0.795636 0.664576 0
0.830427 0.656336 0
0.866331 0.649393 0
0.903029 0.64361 0
0.940505 0.63859 0
0.978164 0.633722 0
1 0.628916 0
1 0.624109 0
0 0.721096 0.0107118
0.0135958 0.72076 0.0105745
0.0458534 0.720424 0.0104067
0.0781109 0.720073 0.0102388
0.110338 0.719738 0.0100404
0.142565 0.719387 0.00982681
0.174746 0.719051 0.00958267
0.206928 0.7187 0.00932326
0.239078 0.718349 0.00903334
0.271214 0.717983 0.00872816
0.303334 0.717632 0.00839246
0.335439 0.717266 0.0080415
0.367529 0.716884 0.00766003
0.399573 0.716503 0.00724804
0.431632 0.716091 0.00680552
0.463661 0.715694 0.00634775
0.495659 0.715267 0.00585946
0.527306 0.715099 0.00357061
0.558297 0.715679 0
0.589288 0.716915 0
0.621103 0.718624 0
0.654673 0.720439 0
0.689769 0.720836 0
0.72546 0.718532 0
0.760494 0.713024 0
0.794476 0.70489 0
0.828244 0.695827 0
0.862867 0.687419 0
0.898558 0.680232 0
0.935073 0.674189 0
0.972396 0.669017 0
1 0.664134 0
1 0.659297 0
0 0.7523 0.0108949
0.0138247 0.751965 0.0107424
0.0460975 0.751614 0.0105898
0.0783551 0.751278 0.0104219
0.110582 0.750927 0.0102235
0.142794 0.750591 0.0100099
0.175006 0.75024 0.00978103
0.207172 0.749905 0.00952163
0.239353 0.749554 0.00924697
0.271489 0.749187 0.00894179
0.303609 0.748837 0.00862135
0.335729 0.74847 0.00827039
0.367819 0.748089 0.00790417
0.399878 0.747707 0.00750744
0.431937 0.747326 0.00708019
0.463966 0.746929 0.00663767
0.495995 0.746517 0.00616464
0.527977 0.74609 0.00561532
0.559426 0.746105 0.00201419
0.590326 0.746853 0
0.621393 0.748196 0
0.653422 0.74995 0
0.68719 0.751736 0
0.722362 0.75198 0
0.758053 0.74963 0
0.793133 0.744167 0
0.827131 0.736156 0
0.860853 0.727108 0
0.895323 0.718532 0
0.930831 0.711101 0
0.967178 0.704814 0
1 0.699474 0
1 0.69456 0
0 0.783505 0.0110628
0.0140688 0.783154 0.0109255
0.0463417 0.782818 0.0107729
0.0785992 0.782467 0.010605
0.110826 0.782132 0.0104067
0.143053 0.781781 0.010193
0.17525 0.781445 0.00996414
0.207431 0.781094 0.00972
0.239597 0.780743 0.00944533
0.271748 0.780392 0.00915541
0.303883 0.780041 0.00885023
0.336004 0.779675 0.00851453
0.368093 0.779309 0.00814832
0.400183 0.778927 0.00776684
0.432242 0.778546 0.00735485
0.464286 0.778149 0.0069276
0.496315 0.777737 0.00646983
0.528328 0.777325 0.00598154
0.560235 0.776959 0.00503548
0.59147 0.777188 0
0.62237 0.778058 0
0.653544 0.779492 0
0.685756 0.781308 0
0.719722 0.783001 0
0.75494 0.783123 0
0.790646 0.780713 0
0.825742 0.775326 0
0.8598 0.767422 0
0.893492 0.758389 0
0.92781 0.749676 0
0.963149 0.742031 0
0.999329 0.735515 0
1 0.729931 0
0 0.814694 0.0112459
0.0142977 0.814359 0.0111086
0.0465705 0.814008 0.010956
0.0788281 0.813672 0.0107881
0.11107 0.813336 0.0105898
0.143282 0.812985 0.0103914
0.175494 0.81265 0.0101625
0.207691 0.812299 0.00991836
0.239857 0.811948 0.0096437
0.272007 0.811597 0.00936904
0.304158 0.811246 0.00906386
0.336278 0.81088 0.00872816
0.368383 0.810513 0.0083772
0.400473 0.810132 0.00801099
0.432532 0.809766 0.00761425
0.464607 0.809369 0.00720226
0.496635 0.808972 0.00675975
0.528664 0.80856 0.00628672
0.560662 0.808133 0.00579843
0.592416 0.807889 0.00408942
0.623529 0.80827 0
0.654414 0.809277 0
0.68571 0.810803 0
0.718135 0.812634 0
0.752255 0.814267 0
0.787533 0.814267 0
0.82324 0.811795 0
0.858366 0.806455 0
0.892454 0.798672 0
0.926131 0.78967 0
0.960327 0.78085 0
0.995499 0.772992 0
1 0.766262 0
0 0.845899 0.011429
0.0145418 0.845548 0.0112917
0.0468147 0.845212 0.0111391
0.079057 0.844877 0.0109712
0.111299 0.844526 0.0107881
0.143542 0.84419 0.0105745
0.175738 0.843839 0.0103609
0.207935 0.843503 0.0101167
0.240116 0.843153 0.00985733
