Vlog/LUT/20220903 slog3 青橙LUT/肤色优化青橙Rec709_LUT_17grid.C2357.cube_18.C2357.cube
TITLE "Generated by Resolve"
LUT_3D_SIZE 5
0.0514076 0.0849165 0.0757305
0.371832 0.0346227 0.0269322
0.636057 0.0117647 0.00936904
0.740475 0.0545357 0.059205
0.706706 0.146639 0.16759
0.0149538 0.304036 0.110506
0.393271 0.283513 0.119844
0.650111 0.289769 0.139437
0.783154 0.331365 0.196796
0.817334 0.396109 0.319875
0.136339 0.548302 0.22034
0.464683 0.537835 0.230411
0.690425 0.544991 0.2598
0.830259 0.56701 0.349371
0.886717 0.605539 0.474189
0.393866 0.712337 0.417136
0.580316 0.724575 0.408179
0.750515 0.733349 0.441398
0.884672 0.747768 0.516976
0.96379 0.773159 0.608652
0.60116 0.842069 0.623896
0.689784 0.873655 0.614969
0.808286 0.894469 0.62211
0.933959 0.911849 0.659358
1 0.934905 0.72575
0 0.0973068 0.310918
0.237812 0.0632334 0.275792
0.583124 0.0308843 0.220325
0.755154 0.0602274 0.224353
0.764218 0.146563 0.268421
0 0.333623 0.326482
0.277531 0.328786 0.316274
0.667842 0.301122 0.29163
0.861341 0.324987 0.320409
0.917189 0.386877 0.38381
0 0.594354 0.416526
0.343359 0.586816 0.381415
0.656229 0.569207 0.394217
0.849973 0.576349 0.435935
0.971206 0.600092 0.494331
0.271717 0.755734 0.534951
0.481758 0.766583 0.502739
0.707683 0.761578 0.50605
0.892989 0.763134 0.540612
1 0.773785 0.596719
0.517281 0.880385 0.662638
0.590814 0.917449 0.629587
0.743755 0.930602 0.61355
0.926818 0.934997 0.63267
1 0.945602 0.683345
0 0.10898 0.449195
0.103716 0.101228 0.458885
0.455238 0.0759289 0.419364
0.693843 0.0914473 0.388525
0.760861 0.164324 0.385336
0 0.351995 0.515129
0.117266 0.374563 0.55697
0.546304 0.341588 0.526986
0.809094 0.349813 0.504845
0.927535 0.396597 0.50779
0 0.617365 0.607309
0.190814 0.627832 0.614359
0.565713 0.599695 0.584924
0.85417 0.583108 0.569162
1 0.592767 0.580926
0.184848 0.783566 0.675319
0.355856 0.804623 0.664271
0.605264 0.798733 0.636744
0.853422 0.783444 0.644129
1 0.779553 0.658457
0.436805 0.910582 0.769635
0.466529 0.958358 0.732769
0.62092 0.974182 0.686763
0.864286 0.96492 0.684245
1 0.960159 0.713176
0 0.117906 0.473045
0.0506447 0.129381 0.536065
0.301747 0.133181 0.557015
0.56463 0.148379 0.522438
0.684596 0.208667 0.485435
0 0.361852 0.619623
0.0365148 0.395773 0.728954
0.381628 0.382345 0.745861
0.686732 0.380758 0.72459
0.859922 0.416419 0.695994
0 0.618051 0.758663
0.113954 0.639857 0.830976
0.432837 0.621195 0.842908
0.743175 0.599954 0.825711
0.974563 0.60119 0.801175
0.188922 0.784543 0.833478
0.272831 0.819654 0.880079
0.482734 0.823316 0.888395
0.757275 0.804776 0.872297
1 0.782147 0.848081
0.415915 0.920211 0.900435
0.379171 0.980896 0.923659
0.483925 1 0.917006
0.726131 1 0.88838
1 0.981842 0.883253
0 0.127138 0.449546
0.0483864 0.163607 0.492226
0.206744 0.193927 0.560037
0.419196 0.219944 0.571145
0.578378 0.263249 0.563272
0 0.373739 0.601129
0.064622 0.41474 0.74696
0.2907 0.423972 0.805661
0.557565 0.427497 0.811048
0.74464 0.45507 0.798489
0.097673 0.602014 0.78793
0.163439 0.636378 0.888548
0.366155 0.63711 0.916091
0.622843 0.625544 0.907179
0.858198 0.624384 0.893629
0.317281 0.76318 0.885801
0.308721 0.811521 0.956985
0.424735 0.830274 0.976196
0.642283 0.822904 0.963546
0.915755 0.804517 0.94284
0.447166 0.919463 0.965148
0.392569 0.979934 1
0.414725 1 1
0.600031 1 1
0.917556 1 1
