Vlog/LUT/20220903 slog3 青橙LUT/肤色优化青橙Slog3_LUT_17grid.C2357.cube_18.C2357.cube
TITLE "Generated by Resolve"
LUT_3D_SIZE 5
0.0514076 0.0849165 0.0757305
0.213107 0.0661173 0.0633249
0.744671 0.0902266 0.147189
0.880293 0.301534 0.372473
0.894331 0.322408 0.39733
0.0351568 0.190478 0.107622
0.180713 0.163027 0.0960555
0.731472 0.104082 0.0597696
0.869825 0.308354 0.33698
0.888106 0.327947 0.363256
0.261372 0.673503 0.467536
0.317876 0.656031 0.40238
0.713726 0.614878 0.393683
0.960433 0.630396 0.504585
0.959716 0.624659 0.501411
0.4822 0.970535 0.750835
0.506966 0.965805 0.716167
0.726223 0.942367 0.626902
1 0.947951 0.682338
1 0.948745 0.688472
0.47483 0.980117 0.795819
0.49836 0.976196 0.758343
0.706447 0.948211 0.635538
1 0.949691 0.688136
1 0.951324 0.697627
0.0205386 0.0922408 0.155459
0.149386 0.0799725 0.156832
0.722805 0.0914778 0.237232
0.881025 0.297566 0.402411
0.892546 0.31841 0.426001
0.0117037 0.174548 0.155138
0.114794 0.155154 0.140932
0.730175 0.0907759 0.143099
0.879606 0.300938 0.370413
0.893614 0.321538 0.395315
0.210208 0.672099 0.506706
0.252216 0.658579 0.455573
0.702602 0.606912 0.391897
0.969802 0.615167 0.501503
0.970245 0.608347 0.498329
0.46244 0.973785 0.782452
0.484474 0.970214 0.747814
0.695384 0.944457 0.630274
1 0.948058 0.68188
1 0.949096 0.689433
0.456062 0.983246 0.827115
0.477043 0.979843 0.792523
0.673182 0.950683 0.640558
1 0.94992 0.687922
1 0.951598 0.698863
0 0.104982 0.457084
0.0605783 0.100313 0.458824
0.589258 0.160082 0.485969
0.839872 0.332158 0.569818
0.844144 0.351125 0.600427
0 0.130892 0.449561
0 0.107134 0.454307
0.575647 0.156573 0.47306
0.854002 0.331701 0.546777
0.8589 0.350912 0.575769
0.0757305 0.662135 0.662165
0.0798962 0.654292 0.652766
0.557488 0.596643 0.610681
1 0.532143 0.573922
1 0.525917 0.575769
0.390494 0.987533 0.924117
0.39942 0.98703 0.908461
0.502464 0.974563 0.748516
1 0.94284 0.685222
1 0.936324 0.699016
0.38999 0.994598 0.95288
0.398428 0.994186 0.938827
0.49305 0.981628 0.787167
1 0.953536 0.69662
1 0.954147 0.711833
0.0185092 0.145708 0.49308
0.0521401 0.15462 0.521157
0.378775 0.229633 0.637461
0.699123 0.406806 0.747845
0.699092 0.423789 0.765423
0 0.160876 0.483803
0.016434 0.14493 0.495933
0.353109 0.234318 0.648371
0.707103 0.404456 0.745769
0.707927 0.421347 0.763684
0 0.579965 0.774441
0 0.562661 0.76463
0.278645 0.526665 0.864591
0.795544 0.483803 0.816999
0.795605 0.476722 0.810559
0.376028 0.97641 1
0.3738 0.973541 1
0.366812 0.955718 1
0.834012 0.936431 0.991455
0.954879 0.912627 0.977142
0.388464 0.99472 1
0.386404 0.995987 1
0.381415 1 1
0.773678 1 1
0.968673 0.993133 0.995331
0.0372625 0.158892 0.479164
0.0634318 0.17084 0.50016
0.347112 0.246433 0.618723
0.680903 0.422385 0.760983
0.691432 0.433295 0.773922
0.00256352 0.173892 0.483574
0.0378271 0.158282 0.476295
0.324636 0.251789 0.633448
0.681346 0.422889 0.761593
0.692241 0.434195 0.774746
0.0213626 0.555627 0.760067
0.0172427 0.536706 0.745434
0.257008 0.502983 0.846098
0.730648 0.474784 0.818738
0.73843 0.469215 0.811017
0.391257 0.960952 1
0.388968 0.957824 1
0.379675 0.939544 1
0.777813 0.927489 0.983444
0.899275 0.904677 0.968017
0.392966 0.994034 1
0.39292 0.994873 1
0.392752 1 1
0.70811 1 1
0.902373 1 1
