Vlog/LUT/20220903 slog3 青橙LUT/肤色优化青橙Rec709_LUT_17grid.C2357.cube_18.C2357.cube
TITLE "Generated by Resolve"
LUT_3D_SIZE 17
0.0514076 0.0849165 0.0757305
0.103227 0.080705 0.0729839
0.184909 0.0679332 0.0590524
0.280873 0.0505226 0.0419318
0.371832 0.0346227 0.0269322
0.451911 0.0228428 0.016556
0.523461 0.0142672 0.00947585
0.585504 0.0108797 0.00723278
0.636057 0.0117647 0.00936904
0.676219 0.0169985 0.0158846
0.706737 0.0258946 0.0261082
0.728099 0.0385901 0.040589
0.740475 0.0545357 0.059205
0.742016 0.073991 0.0820478
0.734981 0.0966812 0.108553
0.719387 0.122194 0.138857
0.706706 0.146639 0.16759
0.0536202 0.11841 0.0768139
0.108324 0.113863 0.0775464
0.187259 0.103807 0.068864
0.292134 0.0895552 0.051606
0.39472 0.0764172 0.0385443
0.485069 0.0672465 0.0312963
0.563607 0.0615396 0.0280919
0.628885 0.0602731 0.0295109
0.680613 0.0635843 0.0340887
0.721004 0.0712291 0.0420386
0.751171 0.0825208 0.0529641
0.771496 0.0972152 0.0678721
0.782376 0.114443 0.0878309
0.784741 0.134508 0.112581
0.779171 0.156741 0.141375
0.765332 0.181079 0.173327
0.742931 0.207828 0.207614
0.0379797 0.16788 0.0787823
0.106661 0.165835 0.0822614
0.19765 0.157946 0.083238
0.289845 0.150393 0.0774701
0.385214 0.142473 0.0683604
0.481483 0.134218 0.0591897
0.565698 0.129427 0.055024
0.63418 0.129366 0.0566873
0.688106 0.133867 0.0623484
0.730755 0.141939 0.0707561
0.762921 0.153201 0.0817884
0.785657 0.167254 0.0971084
0.799771 0.183459 0.118151
0.806012 0.201694 0.143877
0.80412 0.221897 0.173831
0.794675 0.244388 0.206958
0.777493 0.268879 0.242054
0.0230411 0.233417 0.0911727
0.103426 0.231373 0.0934157
0.203891 0.223331 0.0978866
0.298207 0.217212 0.0978714
0.386526 0.212711 0.0963912
0.469398 0.209247 0.0948959
0.544945 0.20763 0.093904
0.61033 0.20911 0.0960555
0.666087 0.213504 0.101183
0.711467 0.22063 0.1084
0.74696 0.230793 0.118639
0.773892 0.243275 0.13344
0.793805 0.25745 0.154421
0.806958 0.273396 0.180392
0.812696 0.291218 0.210742
0.81088 0.31107 0.244205
0.801755 0.332769 0.279286
0.0149538 0.304036 0.110506
0.103517 0.302052 0.110979
0.208362 0.294163 0.114885
0.305196 0.287739 0.118669
0.393271 0.283513 0.119844
0.473152 0.28098 0.121263
0.540932 0.281544 0.125475
0.599084 0.284566 0.131609
0.650111 0.289769 0.139437
0.69398 0.297215 0.147997
0.730526 0.306859 0.158953
0.759899 0.318563 0.17464
0.783154 0.331365 0.196796
0.800931 0.345541 0.223575
0.813062 0.360937 0.254032
0.819211 0.377539 0.286687
0.817334 0.396109 0.319875
0.0221408 0.372992 0.133425
0.111925 0.37084 0.132387
0.215854 0.36347 0.134737
0.313268 0.356863 0.139803
0.401495 0.352438 0.14313
0.47921 0.350362 0.146258
0.545586 0.351217 0.151781
0.602655 0.354696 0.159808
0.652613 0.360052 0.169955
0.695705 0.367544 0.18088
0.732815 0.376715 0.193652
0.76318 0.387503 0.212161
0.787289 0.399313 0.237049
0.805997 0.411948 0.26656
0.819974 0.425467 0.29868
0.829084 0.439811 0.330968
0.831952 0.455512 0.362432
0.0433509 0.43714 0.159472
0.133394 0.434287 0.157153
0.233921 0.427726 0.158724
0.329747 0.421668 0.163882
0.416159 0.417716 0.168734
0.491127 0.416571 0.173754
0.556115 0.418097 0.180758
0.61294 0.421424 0.189517
0.663096 0.42652 0.199542
0.707332 0.433005 0.210651
0.745068 0.441016 0.225208
0.775967 0.45008 0.247166
0.800488 0.460319 0.275044
0.819532 0.471427 0.30692
0.834211 0.483146 0.340002
0.843519 0.495811 0.371893
0.848157 0.509758 0.402609
0.0820325 0.494987 0.188937
0.17052 0.492729 0.18674
0.26482 0.48777 0.188205
0.356222 0.482872 0.193011
0.438514 0.479728 0.198566
0.50927 0.479286 0.204547
0.571176 0.480797 0.211795
0.626841 0.483833 0.22005
0.676844 0.488212 0.229572
0.7205 0.493645 0.241093
0.758526 0.500038 0.258412
0.790417 0.507591 0.282399
0.815885 0.51577 0.31165
0.835492 0.525063 0.344732
0.850874 0.535424 0.377966
0.861128 0.546654 0.409186
0.866712 0.559106 0.439414
0.136339 0.548302 0.22034
0.21854 0.547021 0.219242
0.305592 0.543496 0.221027
0.389624 0.539742 0.225223
0.464683 0.537835 0.230411
0.530236 0.537713 0.236118
0.5888 0.539055 0.242481
0.642313 0.541711 0.250309
0.690425 0.544991 0.2598
0.733669 0.548928 0.273564
0.771481 0.554116 0.293767
0.803418 0.559991 0.318898
0.830259 0.56701 0.349371
0.851713 0.574838 0.381949
0.868025 0.583841 0.413931
0.879774 0.594079 0.444602
0.886717 0.605539 0.474189
0.199176 0.596887 0.253697
0.273259 0.596674 0.25243
0.35169 0.594415 0.253712
0.42594 0.592142 0.257099
0.492897 0.591104 0.261784
0.552666 0.591455 0.267063
0.607569 0.592508 0.273701
0.658045 0.594324 0.281941
0.704341 0.596963 0.294301
0.74641 0.600061 0.310933
0.783627 0.604364 0.332586
0.815961 0.609247 0.358953
0.844007 0.615228 0.389105
0.86685 0.621988 0.419883
0.885115 0.630121 0.449744
0.898497 0.639048 0.479088
0.907118 0.649363 0.508095
0.264576 0.639933 0.299046
0.33019 0.64094 0.295323
0.39791 0.640116 0.293965
0.462013 0.639368 0.295277
0.520821 0.639628 0.298909
0.575265 0.640146 0.304219
0.626429 0.641474 0.311925
0.674159 0.642924 0.322301
0.718791 0.645212 0.33608
0.759487 0.647868 0.354116
0.796017 0.651591 0.376761
0.828489 0.655818 0.40293
0.857099 0.661128 0.4309
0.881621 0.666972 0.458579
0.901686 0.674113 0.486473
0.916945 0.682322 0.514427
0.927184 0.691417 0.541985
0.329915 0.677882 0.354925
0.385763 0.680049 0.349462
0.443229 0.681407 0.346426
0.497993 0.682383 0.346151
0.550042 0.683711 0.348608
0.599771 0.684871 0.35346
0.647242 0.686488 0.36112
0.692103 0.68809 0.371786
0.734264 0.69041 0.386145
0.773373 0.693156 0.404486
0.809094 0.696376 0.425788
0.841856 0.70042 0.44976
0.871 0.70489 0.473884
0.896284 0.710521 0.49897
0.917632 0.716945 0.524361
0.934127 0.724163 0.550027
0.94638 0.732677 0.576043
0.393866 0.712337 0.417136
0.439673 0.716381 0.411749
0.487205 0.719646 0.408377
0.533837 0.722194 0.406989
0.580316 0.724575 0.408179
0.625376 0.726513 0.411978
0.66894 0.728725 0.418769
0.711055 0.731014 0.428611
0.750515 0.733349 0.441398
0.787961 0.736278 0.457481
0.822629 0.739452 0.475761
0.855116 0.743328 0.495705
0.884672 0.747768 0.516976
0.910216 0.752712 0.538811
0.932479 0.758541 0.561608
0.95053 0.765286 0.585016
0.96379 0.773159 0.608652
0.454017 0.745251 0.476417
0.489967 0.751217 0.472404
0.529351 0.756085 0.469337
0.569558 0.759899 0.467918
0.610468 0.763394 0.468788
0.651133 0.766491 0.471763
0.69073 0.769223 0.47689
0.729686 0.772091 0.48481
0.766766 0.775204 0.49514
0.802457 0.778134 0.507881
0.836255 0.781628 0.522988
0.868101 0.785443 0.539651
0.897292 0.78941 0.557641
0.923384 0.794278 0.576776
0.946395 0.799741 0.59678
0.965148 0.806195 0.617456
0.979217 0.813489 0.638422
0.509331 0.77731 0.531365
0.537957 0.784817 0.527916
0.570016 0.791119 0.524941
0.604273 0.796536 0.523354
0.639368 0.801053 0.523262
0.675685 0.805051 0.525124
0.711757 0.808835 0.52903
0.747219 0.812421 0.534905
0.781506 0.815763 0.542763
0.815641 0.819257 0.552911
0.848234 0.82298 0.565057
0.879484 0.826581 0.578805
0.908858 0.830823 0.594247
0.935378 0.835645 0.610697
0.958846 0.841093 0.628138
0.978073 0.847196 0.646662
0.993637 0.854566 0.667933
0.56054 0.808621 0.582559
0.582818 0.817624 0.579095
0.608057 0.825528 0.575845
0.636057 0.831937 0.573037
0.666117 0.837766 0.571832
0.697414 0.842969 0.572015
0.72903 0.847547 0.574029
0.761563 0.851652 0.578042
0.794598 0.85565 0.584146
0.827573 0.859525 0.59234
0.85948 0.863539 0.602365
0.890745 0.867414 0.613977
0.920363 0.871824 0.6271
0.94754 0.876692 0.641611
0.971267 0.881987 0.657801
0.991684 0.888334 0.677378
1 0.895705 0.701823
0.60116 0.842069 0.623896
0.623484 0.849867 0.625238
0.642481 0.858701 0.620813
0.664881 0.866636 0.61735
0.689784 0.873655 0.614969
0.71725 0.879728 0.614038
0.74609 0.884947 0.614572
0.776776 0.889845 0.617426
0.808286 0.894469 0.62211
0.84033 0.898848 0.628809
0.87245 0.902846 0.637018
0.904128 0.907164 0.647272
0.933959 0.911849 0.659358
0.961563 0.916808 0.674281
0.985885 0.922362 0.692897
1 0.928756 0.717739
1 0.934905 0.72575
0.0316777 0.0903487 0.111101
0.0901503 0.0843061 0.105135
0.157778 0.0753185 0.0957961
0.253697 0.0581064 0.0783703
0.349798 0.0416114 0.061738
0.434669 0.0290074 0.049012
0.511177 0.0203555 0.0404059
0.577813 0.0161288 0.0364385
0.632883 0.0161746 0.0370489
0.676799 0.0204929 0.0431525
0.711131 0.0283513 0.0539712
0.735698 0.0399481 0.0689708
0.75108 0.0551003 0.0878462
0.755611 0.0741741 0.109499
0.751461 0.0962692 0.134218
0.738705 0.120775 0.161044
0.71725 0.148302 0.190326
0.0323644 0.124132 0.111299
0.089128 0.120287 0.107271
0.168734 0.111101 0.0995804
0.276081 0.0969863 0.0851606
0.380606 0.0838636 0.0726177
0.474098 0.0742962 0.0638743
0.556069 0.0678874 0.0584115
0.625116 0.0658885 0.0574502
0.680461 0.0683757 0.0606851
0.724178 0.0751507 0.0683452
0.757855 0.085008 0.0806592
0.781216 0.0985885 0.0970779
0.79527 0.115114 0.117205
0.799985 0.134386 0.140475
0.796689 0.156008 0.167056
0.784848 0.179812 0.195697
0.765255 0.205905 0.225467
0.0166934 0.175708 0.113878
0.0771801 0.177264 0.115404
0.173114 0.16846 0.116472
0.267597 0.160952 0.110842
0.373022 0.15079 0.0978256
0.477089 0.141039 0.0868086
0.565591 0.135195 0.0813153
0.636652 0.134478 0.0809796
0.693553 0.138094 0.0852979
0.739574 0.144884 0.0933394
0.776104 0.154498 0.10631
0.802106 0.167147 0.123369
0.819135 0.182223 0.144472
0.826749 0.200046 0.169482
0.826581 0.22005 0.197375
0.817975 0.242435 0.227146
0.802457 0.266926 0.258
0.0019379 0.242313 0.125536
0.069688 0.244892 0.127932
0.175326 0.236408 0.12932
0.275914 0.228641 0.130968
0.368292 0.223255 0.12781
0.458274 0.218463 0.123323
0.54165 0.215015 0.118807
0.612985 0.214755 0.117281
0.672984 0.217716 0.119631
0.722713 0.223499 0.126177
0.763912 0.23151 0.137682
0.796353 0.242008 0.15407
0.819928 0.254917 0.175082
0.834318 0.270314 0.200473
0.84094 0.288029 0.229129
0.838743 0.308019 0.259739
0.82974 0.329976 0.290974
0 0.314122 0.143862
0.0681773 0.316365 0.144793
0.175235 0.308827 0.144762
0.281437 0.300038 0.14931
0.374777 0.294606 0.150164
0.460014 0.290745 0.149477
0.532998 0.289708 0.150942
0.595789 0.291676 0.153872
0.65095 0.295781 0.158328
0.699489 0.301762 0.165698
0.741207 0.309667 0.177737
0.776654 0.319142 0.194003
0.805646 0.330312 0.214832
0.827878 0.343175 0.239582
0.842832 0.357794 0.267689
0.849317 0.374472 0.297444
0.847669 0.393256 0.327657
0 0.385092 0.166598
0.0753033 0.385504 0.164797
0.180804 0.37847 0.163073
0.287541 0.36968 0.167193
0.382223 0.3635 0.170886
0.465797 0.360037 0.172915
0.536919 0.359777 0.176059
0.598291 0.362097 0.181384
0.651438 0.366735 0.188647
0.698238 0.373281 0.199069
0.738689 0.381003 0.213779
0.773602 0.389975 0.23299
0.802045 0.400259 0.256077
0.825391 0.411612 0.282521
0.843778 0.423957 0.310414
0.855528 0.43772 0.338659
0.86067 0.453162 0.367376
0.0113832 0.450095 0.190692
0.097322 0.449302 0.187472
0.200351 0.44271 0.185611
0.303212 0.43508 0.189288
0.397208 0.429282 0.194263
0.478325 0.426444 0.198001
0.547494 0.426703 0.202701
0.607996 0.429084 0.208835
0.66186 0.433036 0.216815
0.708705 0.438499 0.228428
0.749218 0.445045 0.245655
0.783413 0.453239 0.267857
0.811521 0.462119 0.293538
0.834791 0.472023 0.321767
0.85272 0.482902 0.350576
0.86566 0.494957 0.378454
0.873045 0.508019 0.405768
0.0490272 0.509117 0.216678
0.135393 0.507485 0.212741
0.23299 0.502251 0.211551
0.330282 0.495933 0.214847
0.419425 0.491127 0.219959
0.496345 0.489021 0.224948
0.562615 0.489586 0.230396
0.62182 0.491524 0.237003
0.674327 0.494652 0.246021
0.721141 0.498726 0.259525
0.762005 0.504158 0.277867
0.796628 0.51043 0.300694
0.825147 0.517708 0.327825
0.848432 0.526375 0.357488
0.866636 0.53579 0.386267
0.88043 0.546166 0.41387
0.889036 0.558114 0.441428
0.102464 0.562493 0.245396
0.185382 0.561379 0.241611
0.27483 0.55761 0.240513
0.364736 0.552605 0.243229
0.446235 0.548898 0.247791
0.517082 0.547433 0.253086
0.579599 0.547692 0.259098
0.636042 0.549004 0.266453
0.687266 0.550912 0.277348
0.733288 0.554055 0.291981
0.773983 0.557931 0.311009
0.809049 0.563149 0.33463
0.838773 0.569162 0.361913
0.863294 0.576394 0.391165
0.882689 0.584695 0.419852
0.897566 0.594263 0.447532
0.907347 0.604746 0.474571
0.165499 0.610315 0.283284
0.240223 0.610376 0.278309
0.321675 0.607523 0.275532
0.402014 0.604028 0.276402
0.474769 0.601694 0.279942
0.538811 0.600534 0.284825
0.596963 0.600443 0.291325
0.651041 0.601267 0.300206
0.700114 0.602686 0.311849
0.745205 0.605173 0.327337
0.785489 0.60824 0.346929
0.821012 0.612573 0.371176
0.851865 0.617578 0.397803
0.878065 0.623819 0.425467
0.899184 0.630945 0.452598
0.915328 0.63949 0.479912
0.926635 0.648844 0.506539
0.231159 0.652644 0.330343
0.297673 0.653513 0.323293
0.369238 0.65211 0.31841
0.438987 0.650446 0.317678
0.502373 0.64921 0.319524
0.561212 0.648875 0.323949
0.615427 0.649012 0.330205
0.666331 0.649851 0.339391
0.713802 0.650996 0.351507
0.75761 0.653086 0.367498
0.797238 0.655665 0.387533
0.832944 0.659419 0.410712
0.864775 0.6636 0.435615
0.892164 0.669062 0.461021
0.915084 0.675502 0.486778
0.932937 0.682704 0.512566
0.946151 0.691341 0.538705
0.297948 0.689754 0.383474
0.355703 0.692119 0.375708
0.416678 0.692576 0.369772
0.47628 0.692805 0.367514
0.531884 0.693004 0.368063
0.585428 0.693492 0.371496
0.63566 0.694072 0.377081
0.683787 0.695109 0.386007
0.729015 0.696437 0.397955
0.770703 0.698421 0.413397
0.809735 0.701076 0.432441
0.845335 0.704112 0.453101
0.877638 0.70811 0.475395
0.905943 0.712642 0.49836
0.93022 0.718303 0.521889
0.949996 0.724926 0.545983
0.964477 0.732448 0.570382
0.365789 0.723491 0.439002
0.413382 0.727687 0.432441
0.463096 0.730358 0.426749
0.513146 0.732479 0.423774
0.562463 0.733883 0.42327
0.610971 0.735256 0.425605
0.657145 0.736614 0.430243
0.702205 0.738003 0.437949
0.74461 0.73991 0.448524
0.784741 0.741833 0.462043
0.822507 0.744549 0.478141
0.858183 0.7476 0.496147
0.89012 0.751171 0.515312
0.919341 0.755413 0.535836
0.944442 0.760464 0.556939
0.964996 0.766186 0.578714
0.981262 0.77319 0.601068
0.429801 0.75584 0.491615
0.467033 0.761975 0.48658
0.50724 0.766491 0.481819
0.549752 0.770169 0.479088
0.593088 0.773098 0.478355
0.635904 0.775372 0.479438
0.678737 0.777584 0.483192
0.720455 0.779751 0.489204
0.760021 0.781888 0.497581
0.798474 0.78439 0.508827
0.835035 0.787198 0.521965
0.869841 0.789914 0.537026
0.902037 0.793469 0.553552
0.931579 0.797406 0.571328
0.95697 0.801953 0.589624
0.978759 0.807507 0.60914
0.995834 0.814267 0.629404
0.487556 0.787549 0.541939
0.516518 0.7953 0.537545
0.549249 0.801663 0.533211
0.584543 0.806607 0.529809
0.621836 0.810864 0.528374
0.660166 0.814466 0.528771
0.698314 0.81738 0.530678
0.736019 0.820386 0.535012
0.773663 0.823178 0.541573
0.810254 0.825895 0.550256
0.845655 0.828733 0.560891
0.880308 0.83183 0.573373
0.91249 0.835416 0.587396
0.942443 0.839155 0.602655
0.968673 0.843748 0.619089
0.991302 0.849256 0.636637
1 0.855863 0.656046
0.540398 0.818952 0.589639
0.561959 0.828046 0.584985
0.587427 0.835782 0.579919
0.61622 0.842374 0.576043
0.647517 0.847944 0.57322
0.680385 0.85243 0.571649
0.714748 0.856489 0.572152
0.749676 0.860166 0.575097
0.785336 0.863508 0.579797
0.820417 0.866575 0.58645
0.855772 0.869825 0.595331
0.890517 0.873121 0.606134
0.92311 0.876631 0.618128
0.953704 0.880583 0.631617
0.980697 0.88539 0.64654
1 0.890913 0.663966
1 0.897246 0.685405
0.588022 0.849699 0.632654
0.602564 0.860136 0.627527
0.621881 0.86923 0.622187
0.644495 0.87718 0.617197
0.670817 0.883818 0.613214
0.699458 0.889372 0.610819
0.730648 0.894347 0.610285
0.763668 0.898665 0.611887
0.797589 0.902693 0.615366
0.832746 0.906081 0.620691
0.868101 0.909651 0.628458
0.902922 0.913298 0.6374
0.936004 0.916899 0.648295
0.967102 0.921172 0.661585
0.994583 0.926131 0.677577
1 0.931456 0.697978
1 0.938109 0.725902
0.00848402 0.0935073 0.170321
0.068925 0.0870985 0.164752
0.125368 0.081178 0.157839
0.219074 0.0650492 0.139925
0.318441 0.0485542 0.121553
0.409125 0.0350652 0.106065
0.490684 0.0263981 0.0953689
0.562493 0.0212253 0.0889754
0.622827 0.0203555 0.087541
0.671153 0.0235447 0.0912795
0.709758 0.0305943 0.0995499
0.738308 0.0413672 0.111894
0.75729 0.0559091 0.127916
0.765118 0.0741894 0.14612
0.764416 0.0957351 0.166918
0.755032 0.120027 0.189746
0.736996 0.146838 0.213779
0.00808728 0.128573 0.165499
0.0677958 0.124254 0.161471
0.140002 0.118608 0.155276
0.243107 0.106371 0.142382
0.351324 0.09308 0.128695
0.450492 0.0823529 0.117754
0.538125 0.0750134 0.11046
0.611948 0.07187 0.107881
0.671916 0.0732433 0.110079
0.719493 0.0788281 0.116808
0.757198 0.0878309 0.127047
0.784558 0.100374 0.141054
0.802106 0.115908 0.158083
0.810224 0.134463 0.177981
0.810269 0.155444 0.199908
0.801816 0.17879 0.223392
0.78526 0.204654 0.247883
0 0.182467 0.162387
0.0544747 0.184405 0.163531
0.140276 0.180179 0.15877
0.243458 0.171008 0.152468
0.359808 0.158236 0.138582
0.466529 0.14786 0.129152
0.558801 0.140932 0.124117
0.633494 0.13904 0.124315
0.693599 0.141466 0.129229
0.742931 0.147173 0.137881
0.781811 0.155901 0.150027
0.810773 0.167544 0.165469
0.83006 0.182101 0.183993
0.840085 0.199313 0.205341
0.842069 0.219013 0.228763
0.835966 0.241184 0.253193
0.822873 0.2654 0.278355
0 0.25034 0.168704
0.0397955 0.255573 0.171923
0.137163 0.250935 0.167681
0.247623 0.240955 0.169299
0.344442 0.234958 0.166079
0.442847 0.228031 0.158175
0.538766 0.221073 0.150042
0.618982 0.218143 0.148241
0.684459 0.21912 0.152193
0.738582 0.223133 0.160388
0.782605 0.230106 0.172732
0.81677 0.239872 0.188754
0.841505 0.252293 0.208377
0.856855 0.267643 0.231281
0.863447 0.285481 0.255924
0.862394 0.305623 0.281636
0.854307 0.327672 0.308309
0 0.323156 0.182193
0.0338903 0.329244 0.184268
0.134737 0.324575 0.17966
0.250706 0.313817 0.181079
0.350622 0.306615 0.183185
0.441703 0.301335 0.181384
0.521294 0.298604 0.18146
0.590265 0.298558 0.183825
0.652262 0.300511 0.188479
0.708186 0.304173 0.195895
0.757824 0.309865 0.206958
0.799985 0.317388 0.22182
0.833341 0.32723 0.240482
0.857481 0.339483 0.262928
0.871885 0.354376 0.287846
0.878157 0.371191 0.313634
0.876158 0.390127 0.340536
0 0.395163 0.20238
0.03888 0.39971 0.201511
0.13994 0.394797 0.196048
0.253864 0.384421 0.195804
0.357549 0.376013 0.200214
0.448112 0.370733 0.201709
0.525216 0.369039 0.204013
0.590646 0.370245 0.210056
0.647593 0.373281 0.219272
0.698665 0.377935 0.230945
0.744198 0.384024 0.244999
0.785061 0.39115 0.26157
0.820157 0.399649 0.280812
0.849226 0.409491 0.302312
0.871168 0.421164 0.325689
0.884794 0.434638 0.350164
0.890547 0.44976 0.375784
0 0.46183 0.22739
0.0590066 0.463752 0.222751
0.160372 0.45864 0.216815
0.269123 0.450202 0.21619
0.372076 0.442039 0.220768
0.460609 0.437354 0.224659
0.535195 0.435981 0.228946
0.599603 0.437003 0.236164
0.656672 0.439582 0.246433
0.707042 0.443778 0.260304
0.750851 0.449226 0.277302
0.789044 0.455741 0.296834
0.822171 0.46334 0.318303
0.850599 0.471916 0.341176
0.873396 0.481926 0.364401
0.890043 0.492866 0.387564
0.900526 0.50547 0.411887
0.0148013 0.521614 0.255924
0.0966506 0.522377 0.249607
0.194675 0.517815 0.243275
0.296986 0.510811 0.242176
0.394644 0.50396 0.246113
0.478782 0.499825 0.250904
0.549783 0.498665 0.256992
0.612619 0.499138 0.264775
0.668452 0.500908 0.275502
0.7187 0.50396 0.289647
0.762631 0.508049 0.307103
0.800122 0.513268 0.327779
0.832731 0.519814 0.351141
0.860166 0.52723 0.37496
0.882811 0.535637 0.398444
0.900587 0.545434 0.422187
0.912367 0.556283 0.446021
0.0653239 0.57525 0.289525
0.14612 0.575479 0.281865
0.236652 0.572168 0.275471
0.331838 0.566323 0.27361
0.421698 0.560784 0.276295
0.498741 0.557565 0.281041
0.565972 0.556252 0.287282
0.626047 0.556146 0.295338
0.680705 0.557168 0.305928
0.729961 0.558938 0.319722
0.7738 0.562081 0.337362
0.812177 0.566064 0.35816
0.845365 0.571496 0.381521
0.873228 0.577829 0.405753
0.896468 0.585153 0.42974
0.91487 0.593957 0.453864
0.928405 0.603769 0.47805
0.12781 0.622858 0.328923
0.201556 0.623606 0.320089
0.284306 0.621241 0.313008
0.370306 0.616876 0.309865
0.450004 0.612604 0.310857
0.520073 0.609812 0.314549
0.582956 0.608759 0.320333
0.640009 0.608331 0.327962
0.692744 0.608972 0.338613
0.740978 0.610162 0.352361
0.784573 0.612589 0.369818
0.823484 0.615778 0.390265
0.857755 0.620264 0.412787
0.887297 0.625452 0.436042
0.91194 0.632044 0.459998
0.931289 0.63946 0.484001
0.946181 0.648234 0.508247
0.194324 0.664698 0.373205
0.259846 0.666484 0.363622
0.333639 0.665095 0.354986
0.408591 0.662211 0.350347
0.47866 0.659754 0.350149
0.54197 0.65803 0.352728
0.600931 0.657145 0.35787
0.654994 0.65684 0.365194
0.705821 0.657359 0.375418
0.752712 0.658259 0.388922
0.795727 0.660304 0.405661
0.834653 0.662959 0.424918
0.870024 0.666621 0.446143
0.901015 0.670939 0.468009
0.927123 0.676509 0.490852
0.948486 0.683131 0.51429
0.964477 0.690669 0.537881
0.263127 0.701686 0.420142
0.320638 0.704204 0.410376
0.384283 0.704799 0.402152
0.448249 0.703944 0.396735
0.508965 0.703319 0.395575
0.566659 0.702464 0.397131
0.620966 0.702281 0.401251
0.671946 0.702312 0.407736
0.720699 0.702831 0.41738
0.765667 0.704005 0.429831
0.80763 0.705745 0.44506
0.846708 0.708247 0.462806
0.88217 0.711208 0.481544
0.914137 0.715145 0.501915
0.94197 0.719829 0.523293
0.96434 0.725414 0.544961
0.98204 0.732296 0.567666
0.33463 0.735058 0.466712
0.382422 0.739239 0.458518
0.434577 0.741924 0.451423
0.487205 0.743343 0.446418
0.540261 0.744228 0.444602
0.591775 0.744579 0.444953
0.64181 0.745174 0.448066
0.690059 0.745846 0.453696
0.735576 0.746593 0.461677
0.778897 0.748058 0.472602
0.819989 0.749905 0.485969
0.858259 0.752041 0.501045
0.894255 0.754864 0.518135
0.926482 0.758343 0.5364
0.95491 0.762158 0.555276
0.978897 0.767208 0.575265
0.997925 0.773373 0.596063
0.402731 0.766888 0.51223
0.439933 0.772946 0.505699
0.481315 0.777722 0.49958
0.525261 0.780926 0.494896
0.571176 0.783307 0.492592
0.617227 0.785153 0.492439
0.662547 0.786419 0.49427
0.707195 0.787823 0.498497
0.750347 0.789349 0.50515
0.791257 0.790906 0.513924
0.831083 0.792828 0.5252
0.869139 0.795102 0.538308
0.904967 0.797528 0.552789
0.937484 0.800595 0.56849
0.966812 0.804349 0.585397
0.991623 0.809079 0.603357
1 0.814969 0.622217
0.463706 0.798169 0.557046
0.491981 0.806241 0.551461
0.524529 0.812512 0.54551
0.561151 0.817578 0.540734
0.599863 0.821561 0.537697
0.639933 0.82446 0.536065
0.681315 0.826871 0.536507
0.722103 0.829114 0.539178
0.762234 0.83093 0.544015
0.801724 0.833051 0.550958
0.840742 0.835157 0.560143
0.87834 0.837568 0.571023
0.914153 0.839933 0.583413
0.947677 0.843 0.597208
0.977569 0.846754 0.612451
1 0.851286 0.628428
1 0.85684 0.645991
0.517571 0.829221 0.599924
0.538109 0.838804 0.594324
0.563226 0.846906 0.588174
0.592477 0.853452 0.582528
0.624582 0.858579 0.577676
0.659495 0.862913 0.574762
0.696223 0.866423 0.573816
0.733837 0.869352 0.575082
0.772229 0.871748 0.578332
0.810788 0.874311 0.583673
0.849577 0.876738 0.591302
0.887251 0.879103 0.600504
0.92398 0.881834 0.611521
0.958129 0.885069 0.623865
0.988678 0.88893 0.637598
1 0.893263 0.653071
1 0.899046 0.671901
0.565713 0.860059 0.639109
0.579171 0.871 0.633021
0.597803 0.880293 0.626444
0.620386 0.887984 0.619898
0.64741 0.894575 0.614511
0.678004 0.899977 0.610651
0.71104 0.904509 0.608667
0.74638 0.908125 0.608637
0.783398 0.911315 0.610864
0.822019 0.914153 0.615396
0.860868 0.916945 0.621836
0.898894 0.91957 0.629633
0.936126 0.922576 0.639597
0.97055 0.926101 0.651331
1 0.929885 0.6654
1 0.934615 0.683101
1 0.940444 0.706355
0 0.0952926 0.246052
0.0423133 0.0889754 0.241703
0.0990158 0.0831311 0.235676
0.180194 0.0710002 0.221286
0.27921 0.0551919 0.202487
0.375494 0.0415503 0.184604
0.462119 0.0325933 0.170855
0.539773 0.026688 0.16054
0.6056 0.0248875 0.154726
0.659724 0.0270542 0.153826
0.702998 0.033402 0.157992
0.735714 0.0435492 0.165499
0.758694 0.0572671 0.176257
0.770336 0.0749676 0.189044
0.773098 0.0960403 0.204471
0.767254 0.119692 0.221714
0.752926 0.146075 0.240467
0 0.130922 0.241398
0.0425116 0.126726 0.238712
0.104128 0.12488 0.237263
0.203067 0.114366 0.225574
0.312764 0.101549 0.211337
0.417044 0.0901656 0.19791
0.510521 0.0820478 0.187182
0.590661 0.0776226 0.180011
0.656199 0.0780499 0.177935
0.708782 0.0826429 0.180301
0.75079 0.0910506 0.186297
0.782406 0.102495 0.194995
0.80441 0.117311 0.206775
