Vlog/LUT/20220903 slog3 青橙LUT/肤色优化青橙Slog3_LUT_17grid.C2357.cube_18.C2357.cube
TITLE "Generated by Resolve"
LUT_3D_SIZE 17
0.0514076 0.0849165 0.0757305
0.0531777 0.0848707 0.0757305
0.0865034 0.0822614 0.0757458
0.124941 0.0795605 0.0737774
0.213107 0.0661173 0.0633249
0.333898 0.0491035 0.0514687
0.474311 0.0404974 0.0507973
0.623819 0.0502937 0.0800946
0.744671 0.0902266 0.147189
0.821668 0.152132 0.228672
0.857069 0.221225 0.297963
0.86772 0.284001 0.351751
0.880293 0.301534 0.372473
0.888167 0.312963 0.386053
0.892805 0.320195 0.394781
0.894331 0.322408 0.39733
0.894331 0.322408 0.39733
0.0514076 0.0849165 0.0757305
0.0514076 0.0849165 0.0757305
0.0679484 0.0848859 0.0743114
0.10193 0.0837262 0.07393
0.191638 0.0715953 0.058381
0.327443 0.0506752 0.0393683
0.475517 0.038941 0.0355077
0.625971 0.0500038 0.0586099
0.74551 0.0906386 0.125734
0.821576 0.15256 0.213306
0.85626 0.221485 0.2878
0.866896 0.28423 0.34432
0.879194 0.302678 0.365927
0.887419 0.313985 0.379675
0.892302 0.321126 0.388464
0.893828 0.323339 0.391104
0.893828 0.323339 0.391104
0.0540169 0.102602 0.081117
0.0605325 0.098085 0.0766003
0.0721141 0.0949722 0.0758984
0.0962234 0.0942092 0.0758068
0.163546 0.0843214 0.0653086
0.299916 0.0593729 0.0403449
0.465965 0.0437476 0.0261234
0.626261 0.0505989 0.0426947
0.745983 0.0910964 0.10341
0.82089 0.153231 0.195895
0.855024 0.221851 0.276814
0.865461 0.284596 0.336645
0.877653 0.303944 0.359121
0.886275 0.315114 0.372946
0.891402 0.322179 0.381872
0.892989 0.324361 0.384558
0.892989 0.324361 0.384558
0.050721 0.130068 0.0876783
0.0617533 0.124254 0.0800946
0.0784009 0.11696 0.0777752
0.103502 0.116121 0.0814221
0.170321 0.108766 0.0724804
0.301335 0.088838 0.0507515
0.460441 0.0617533 0.0301823
0.61944 0.056733 0.0333562
0.744564 0.0936751 0.0813001
0.819303 0.154055 0.17464
0.852766 0.222477 0.263523
0.863081 0.285008 0.327306
0.87541 0.305455 0.351232
0.88452 0.316472 0.365286
0.889921 0.323445 0.374258
0.891875 0.325505 0.377096
0.891875 0.325505 0.377096
0.0351568 0.190478 0.107622
0.0452277 0.184573 0.095079
0.0690013 0.176074 0.0905623
0.110475 0.167971 0.0900587
0.180713 0.163027 0.0960555
0.292241 0.152895 0.0836347
0.454337 0.132036 0.0620432
0.619333 0.11075 0.0513771
0.731472 0.104082 0.0597696
0.814282 0.161212 0.139864
0.84715 0.224521 0.237339
0.856886 0.286122 0.30985
0.869825 0.308354 0.33698
0.880217 0.31902 0.351385
0.886244 0.325826 0.360601
0.888106 0.327947 0.363256
0.888106 0.327947 0.363256
0.0234226 0.290105 0.15053
0.0375982 0.283635 0.138735
0.0628672 0.274937 0.12578
0.107637 0.262333 0.118654
0.190051 0.250721 0.120882
0.295216 0.244465 0.129229
0.433738 0.233951 0.119722
0.585321 0.222019 0.111894
0.715831 0.216693 0.113893
0.801328 0.220523 0.139956
0.833844 0.238895 0.194965
0.849561 0.294743 0.281285
0.859709 0.320287 0.316869
0.870375 0.327871 0.329442
0.876387 0.332799 0.337499
0.878614 0.334218 0.33991
0.878614 0.334218 0.33991
0.0495003 0.416953 0.22002
0.0641489 0.41146 0.204211
0.0817426 0.404639 0.189883
0.110567 0.395178 0.176577
0.183734 0.375143 0.165133
0.301167 0.363256 0.171878
0.43032 0.356359 0.18201
0.568536 0.350317 0.180117
0.688624 0.351278 0.191287
0.781643 0.357382 0.22295
0.842847 0.366659 0.267643
0.864408 0.379538 0.310597
0.862699 0.386496 0.333257
0.862623 0.378317 0.3299
0.862364 0.373175 0.327901
0.862303 0.371481 0.327276
0.862303 0.371481 0.327276
0.134371 0.548928 0.336645
0.146944 0.544961 0.319677
0.161425 0.540276 0.301228
0.179461 0.534401 0.279835
0.22443 0.521431 0.249836
0.317693 0.498543 0.232624
0.452537 0.490181 0.245487
0.577829 0.487968 0.267735
0.700114 0.487556 0.281788
0.796536 0.491234 0.317205
0.860121 0.499123 0.362631
0.895552 0.50837 0.399176
0.908309 0.514626 0.42153
0.909209 0.509743 0.418952
0.909316 0.506416 0.41709
0.90956 0.505302 0.41648
0.90956 0.505302 0.41648
0.261372 0.673503 0.467536
0.2701 0.670665 0.456489
0.280262 0.667414 0.444572
0.292561 0.663523 0.43032
0.317876 0.656031 0.40238
0.378531 0.640146 0.363607
0.481361 0.621439 0.345174
0.601175 0.616587 0.363134
0.713726 0.614878 0.393683
0.817304 0.614755 0.415808
0.892866 0.618204 0.448096
0.937697 0.624277 0.480095
0.960433 0.630396 0.504585
0.95964 0.627344 0.502846
0.959808 0.625345 0.501778
0.959716 0.624659 0.501411
0.959716 0.624659 0.501411
0.388647 0.78146 0.57641
0.394934 0.779293 0.569009
0.401511 0.776989 0.56141
0.409354 0.774456 0.552605
0.424628 0.769421 0.535958
0.454322 0.759258 0.505425
0.521645 0.741924 0.47393
0.623636 0.731258 0.468833
0.734462 0.728679 0.486809
0.834714 0.728252 0.513069
0.920821 0.728191 0.532631
0.979492 0.729564 0.553704
1 0.732662 0.573129
1 0.73164 0.575402
1 0.730159 0.574502
1 0.729702 0.574243
1 0.729702 0.574243
0.464027 0.880079 0.656992
0.469017 0.878279 0.651774
0.474052 0.876463 0.64651
0.480278 0.87425 0.640482
0.491554 0.870268 0.629374
0.513756 0.862531 0.610132
0.559258 0.848661 0.579538
0.638651 0.830427 0.55552
0.74374 0.828962 0.563531
0.846387 0.827405 0.580255
0.936599 0.826688 0.599817
1 0.825925 0.613001
1 0.826596 0.62472
1 0.825986 0.628077
1 0.825116 0.627588
1 0.824765 0.627405
1 0.824765 0.627405
0.489082 0.960739 0.719585
0.493431 0.959289 0.71313
0.497993 0.957748 0.706905
0.503594 0.955871 0.699855
0.513985 0.952438 0.688136
0.53312 0.946059 0.669779
0.569863 0.93373 0.642359
0.638163 0.917388 0.615579
0.736126 0.909834 0.608164
0.845106 0.908431 0.618524
0.944808 0.906767 0.63331
1 0.906432 0.647669
1 0.907179 0.659983
1 0.906783 0.663691
1 0.905989 0.662959
1 0.90576 0.662791
1 0.90576 0.662791
0.4822 0.970535 0.750835
0.486778 0.969741 0.743984
0.4916 0.968826 0.736965
0.496849 0.967819 0.729549
0.506966 0.965805 0.716167
0.525826 0.96173 0.695247
0.560739 0.95346 0.665568
0.62797 0.945129 0.637629
0.726223 0.942367 0.626902
0.840894 0.943313 0.635996
0.947082 0.943969 0.65066
1 0.945373 0.666438
1 0.947951 0.682338
1 0.949172 0.689693
1 0.948837 0.688701
1 0.948745 0.688472
1 0.948745 0.688472
0.478126 0.975906 0.77467
0.482368 0.975174 0.767697
0.487129 0.974319 0.760342
0.492241 0.973388 0.752285
0.501961 0.971557 0.737911
0.519585 0.967956 0.714519
0.552483 0.960571 0.680659
0.616938 0.950408 0.646403
0.715496 0.945373 0.631067
0.8336 0.945571 0.639719
0.942779 0.945678 0.654093
1 0.946654 0.669612
1 0.948882 0.685298
1 0.950088 0.692851
1 0.950439 0.694118
1 0.950545 0.694453
1 0.950545 0.694453
0.475608 0.979324 0.790722
0.47982 0.978668 0.783719
0.484504 0.977844 0.776547
0.489693 0.976928 0.768261
0.49929 0.975158 0.753491
0.516197 0.971878 0.728954
0.548394 0.964843 0.691844
0.610132 0.953674 0.652644
0.708492 0.94728 0.634073
0.828321 0.947158 0.642206
0.939742 0.946761 0.656657
1 0.947509 0.671855
1 0.949523 0.687465
1 0.950698 0.694972
1 0.951034 0.696361
1 0.951141 0.696818
1 0.951141 0.696818
0.47483 0.980117 0.795819
0.478904 0.979461 0.788754
0.483497 0.978698 0.781369
0.488807 0.977813 0.773159
0.49836 0.976196 0.758343
0.515175 0.973068 0.733577
0.547036 0.966186 0.695827
0.607889 0.954696 0.654719
0.706447 0.948211 0.635538
0.826627 0.947646 0.64303
0.938689 0.947127 0.657465
1 0.947768 0.672572
1 0.949691 0.688136
1 0.950881 0.695735
1 0.951217 0.697154
1 0.951324 0.697627
1 0.951324 0.697627
0.47483 0.980117 0.795819
0.478904 0.979461 0.788754
0.483497 0.978698 0.781369
0.488807 0.977813 0.773159
0.49836 0.976196 0.758343
0.515175 0.973068 0.733577
0.547036 0.966186 0.695827
0.607889 0.954696 0.654719
0.706447 0.948211 0.635538
0.826627 0.947646 0.64303
0.938689 0.947127 0.657465
1 0.947768 0.672572
1 0.949691 0.688136
1 0.950881 0.695735
1 0.951217 0.697154
1 0.951324 0.697627
1 0.951324 0.697627
0.0514076 0.0849165 0.0757305
0.0517586 0.084947 0.0759594
0.0809186 0.0829786 0.0818952
0.116915 0.0807202 0.0840162
0.198489 0.0690318 0.077348
0.31931 0.0520943 0.0668193
0.462242 0.0421149 0.069749
0.615228 0.0499733 0.100847
0.740017 0.0886702 0.165637
0.819913 0.150378 0.241001
0.857404 0.219364 0.306142
0.868788 0.282353 0.357717
0.880781 0.300298 0.378256
0.888457 0.311818 0.391867
0.892912 0.319127 0.400534
0.894362 0.321355 0.403052
0.894362 0.321355 0.403052
0.0514076 0.0849165 0.0757305
0.0514076 0.0849165 0.0757305
0.0730297 0.0831769 0.0749065
0.108248 0.0814832 0.0754406
0.194491 0.0693523 0.065919
0.319097 0.0512551 0.052903
0.464225 0.0410773 0.0506447
0.617685 0.0500496 0.0787518
0.741268 0.0890974 0.145052
0.820111 0.150729 0.227024
0.856947 0.219562 0.296376
0.868223 0.282597 0.350576
0.88011 0.30135 0.372015
0.888014 0.312779 0.385611
0.892653 0.320027 0.394339
0.894179 0.322225 0.396918
0.894179 0.322225 0.396918
0.0501717 0.099321 0.0852369
0.0531624 0.0963455 0.0793164
0.0664073 0.0925002 0.0760662
0.0961624 0.0898451 0.0751965
0.172 0.0775464 0.0624094
0.310369 0.0536965 0.040528
0.465782 0.0394293 0.0345159
0.619776 0.0496834 0.0567178
0.742458 0.0897231 0.123064
0.819928 0.151278 0.210788
0.856107 0.219852 0.285863
0.867155 0.282734 0.342931
0.878965 0.302525 0.365316
0.887221 0.313832 0.37908
0.892134 0.320974 0.387884
0.893645 0.323171 0.3906
0.893645 0.323171 0.3906
0.0462501 0.126131 0.0948806
0.0537881 0.121691 0.0864881
0.0686961 0.114977 0.0788739
0.0976883 0.11252 0.0813306
0.1691 0.103075 0.0730755
0.306554 0.0784924 0.0477607
0.458976 0.0509651 0.029221
0.618891 0.0514382 0.0404974
0.74287 0.0900587 0.097734
0.819318 0.151904 0.191012
0.854505 0.22034 0.273365
0.865248 0.283085 0.333913
0.877195 0.30396 0.357687
0.885893 0.315114 0.371557
0.891081 0.322148 0.380484
0.892668 0.324331 0.38323
0.892668 0.324331 0.38323
0.0296788 0.186252 0.114855
0.038117 0.180758 0.104891
0.0521859 0.174014 0.092134
0.0894179 0.167041 0.0908675
0.173007 0.15906 0.0962539
0.291783 0.14641 0.0845197
0.461723 0.122148 0.0619669
0.623575 0.100053 0.052842
0.73521 0.0983597 0.0662852
0.815946 0.155154 0.152819
0.850004 0.221881 0.248722
0.860273 0.284016 0.31693
0.872541 0.306737 0.343709
0.88246 0.31751 0.358022
0.887953 0.324483 0.36701
0.890013 0.326543 0.369757
0.890013 0.326543 0.369757
0.0153658 0.286854 0.158602
0.0254826 0.28159 0.147555
0.0409705 0.274815 0.134585
0.0782635 0.263569 0.121614
0.170825 0.249821 0.12137
0.288548 0.24097 0.129335
0.433082 0.228458 0.121141
0.590463 0.214572 0.111803
0.724071 0.207721 0.114244
0.80972 0.210544 0.144305
0.840208 0.233112 0.204776
0.851881 0.29012 0.287526
0.861463 0.314656 0.320485
0.871641 0.322469 0.33315
0.878706 0.329046 0.342657
0.880964 0.331121 0.345541
0.880964 0.331121 0.345541
0.0361944 0.415396 0.232776
0.049485 0.410498 0.216648
0.0651102 0.404822 0.200275
0.0866255 0.396811 0.184161
0.157092 0.377325 0.167376
0.286549 0.362844 0.172427
0.425696 0.353643 0.181933
0.568017 0.346456 0.181231
0.689998 0.346334 0.193973
0.787366 0.350881 0.22562
0.851087 0.358968 0.269123
0.870192 0.372488 0.311788
0.867369 0.378637 0.332692
0.866773 0.37055 0.329686
0.866209 0.365362 0.327886
0.866041 0.363592 0.327276
0.866041 0.363592 0.327276
0.121141 0.548333 0.34966
0.13254 0.544579 0.333211
0.145495 0.540413 0.315206
0.162585 0.534981 0.294072
0.198581 0.523507 0.255787
0.297688 0.499809 0.233997
0.443061 0.48954 0.246326
0.574426 0.485649 0.267323
0.69929 0.484627 0.283711
0.797055 0.488258 0.32047
0.862562 0.495293 0.364034
0.899992 0.50396 0.399237
0.913207 0.50988 0.420386
0.913664 0.504677 0.417624
0.914458 0.501305 0.416007
0.914748 0.500206 0.415457
0.914748 0.500206 0.415457
0.250889 0.67332 0.475624
0.259312 0.670573 0.464988
0.268757 0.667536 0.453483
0.280552 0.664164 0.440162
0.304021 0.656886 0.413184
0.359792 0.641382 0.367483
0.469627 0.621561 0.346639
0.595224 0.615763 0.36376
0.711513 0.613275 0.393271
0.816693 0.612757 0.416373
0.893339 0.616083 0.448997
0.939086 0.621759 0.48043
0.962127 0.627588 0.503899
0.961761 0.624552 0.502373
0.961685 0.622278 0.501152
0.961685 0.621561 0.500771
0.961685 0.621561 0.500771
0.381338 0.781262 0.58172
0.386999 0.779248 0.574655
0.393774 0.777173 0.567208
0.401038 0.774746 0.558434
0.415839 0.769726 0.541955
0.444526 0.759991 0.511894
0.510658 0.742367 0.475654
0.616648 0.731273 0.469642
0.730587 0.727932 0.486702
0.833082 0.727016 0.512474
0.920455 0.726848 0.532586
0.979782 0.72813 0.553811
1 0.730831 0.5729
1 0.729656 0.574914
1 0.728374 0.574273
1 0.727886 0.573999
1 0.727886 0.573999
0.458808 0.879805 0.661173
0.46363 0.878065 0.655924
0.468742 0.876234 0.650462
0.474311 0.874235 0.644465
0.485191 0.870375 0.633631
0.507118 0.86305 0.614496
0.550256 0.848692 0.58146
0.631327 0.830472 0.556237
0.739208 0.82855 0.563592
0.843946 0.826596 0.580011
0.935286 0.82562 0.599466
1 0.824643 0.612726
1 0.825254 0.624445
1 0.824811 0.627955
1 0.82359 0.627359
1 0.823194 0.627176
1 0.823194 0.627176
0.484337 0.960525 0.724498
0.488533 0.959121 0.717998
0.493187 0.957565 0.711482
0.49836 0.955825 0.704524
0.508598 0.952438 0.6925
0.527016 0.946319 0.673671
0.562921 0.934585 0.646006
0.631159 0.917632 0.616999
0.730739 0.909682 0.608301
0.841627 0.907942 0.618387
0.942763 0.906004 0.633066
1 0.90544 0.647334
1 0.90605 0.659556
1 0.905776 0.663523
1 0.904906 0.662821
1 0.904585 0.662577
1 0.904585 0.662577
0.478462 0.97116 0.756893
0.482643 0.970474 0.750271
0.487327 0.96965 0.743191
0.492485 0.968688 0.735622
0.502525 0.966705 0.72221
0.520577 0.962921 0.700679
0.554635 0.954986 0.670039
0.620935 0.945464 0.639078
0.720302 0.942809 0.627436
0.836667 0.943648 0.636149
0.944732 0.944091 0.65069
1 0.945449 0.666407
1 0.947967 0.682231
1 0.949203 0.689784
1 0.948898 0.688838
1 0.948806 0.68864
1 0.948806 0.68864
0.474113 0.976623 0.781018
0.478553 0.975845 0.774075
0.482918 0.975097 0.766873
0.488228 0.974121 0.758663
0.497673 0.972381 0.744381
0.51458 0.969039 0.720699
0.54699 0.961883 0.685557
0.609934 0.950668 0.648234
0.70927 0.945846 0.631785
0.829023 0.945953 0.639933
0.939834 0.945876 0.6542
1 0.946746 0.669657
1 0.948913 0.685191
1 0.950149 0.693049
1 0.950484 0.694255
1 0.950591 0.694591
1 0.950591 0.694591
0.471611 0.979965 0.79707
0.476036 0.979263 0.790082
0.480354 0.978576 0.783062
0.485588 0.977676 0.774853
0.494896 0.975998 0.760159
0.511635 0.972808 0.735393
0.542718 0.966171 0.697444
0.602716 0.954009 0.654658
0.702358 0.947677 0.634806
0.823819 0.947478 0.64239
0.936614 0.946975 0.656794
1 0.947601 0.671855
1 0.949554 0.687388
1 0.950759 0.695216
1 0.951095 0.69659
1 0.951186 0.697047
1 0.951186 0.697047
0.47097 0.980774 0.802182
0.475242 0.980056 0.795178
0.479438 0.979385 0.78793
0.484581 0.978531 0.779675
0.493919 0.976974 0.765072
0.510719 0.973953 0.740169
0.541466 0.967468 0.701625
0.600443 0.955032 0.656794
0.700328 0.948653 0.636393
0.822049 0.947982 0.643244
0.935714 0.94728 0.657572
1 0.947875 0.672587
1 0.949767 0.688106
1 0.950942 0.695994
1 0.951278 0.697398
1 0.951385 0.697871
1 0.951385 0.697871
0.47097 0.980774 0.802182
0.475242 0.980056 0.795178
0.479438 0.979385 0.78793
0.484581 0.978531 0.779675
0.493919 0.976974 0.765072
0.510719 0.973953 0.740169
0.541466 0.967468 0.701625
0.600443 0.955032 0.656794
0.700328 0.948653 0.636393
0.822049 0.947982 0.643244
0.935714 0.94728 0.657572
1 0.947875 0.672587
1 0.949767 0.688106
1 0.950942 0.695994
1 0.951278 0.697398
1 0.951385 0.697871
1 0.951385 0.697871
0.0458076 0.0869154 0.0882277
0.0546426 0.0856489 0.0851148
0.0762188 0.0842908 0.0898451
0.110033 0.0825971 0.0950332
0.185061 0.0724193 0.09308
0.304585 0.0551919 0.0872511
0.450233 0.0439002 0.0931258
0.606043 0.0496376 0.122667
0.735119 0.0870375 0.183474
0.817777 0.148714 0.252811
0.857221 0.217624 0.314031
0.869673 0.280781 0.363729
0.880919 0.299184 0.384161
0.888457 0.310704 0.39765
0.89276 0.318074 0.406241
0.894133 0.320378 0.408728
0.894133 0.320378 0.408728
0.0488136 0.0869459 0.0819409
0.0475471 0.086305 0.0846723
0.0658274 0.0847334 0.0847181
0.102586 0.0825055 0.0871595
0.179599 0.0728618 0.0820172
0.304051 0.0548867 0.070161
0.451713 0.0432136 0.071046
0.608392 0.049897 0.100526
0.73669 0.0875105 0.164263
0.818296 0.149004 0.239765
0.857114 0.217716 0.30486
0.869245 0.280812 0.356695
0.880583 0.30013 0.377997
0.888319 0.311604 0.391546
0.892775 0.318914 0.400229
0.89424 0.321157 0.402731
0.89424 0.321157 0.402731
0.0479133 0.096788 0.0879225
0.0489052 0.0939651 0.0853437
0.0589609 0.0907454 0.0825818
0.0987106 0.0854963 0.0800946
0.175677 0.0728161 0.0688792
0.304082 0.0537728 0.0547341
0.453635 0.0417639 0.0505684
0.611078 0.0497749 0.0772869
0.738048 0.0882124 0.143145
0.818494 0.14934 0.225101
0.856641 0.217914 0.294835
0.868528 0.280903 0.349172
0.879927 0.301167 0.371542
0.887846 0.312596 0.385168
0.892515 0.319844 0.393896
0.894026 0.322042 0.396582
0.894026 0.322042 0.396582
0.0425727 0.123003 0.101442
0.0474556 0.11899 0.095964
0.0559701 0.114351 0.0858473
0.0925002 0.1093 0.082002
0.172213 0.0959487 0.0749676
0.309758 0.0685893 0.0514992
0.454765 0.0418555 0.0337987
0.613794 0.0491035 0.0528725
0.739132 0.0886854 0.118059
0.818311 0.149905 0.206744
0.855634 0.21828 0.282872
0.867216 0.281117 0.34052
0.878599 0.302495 0.36408
0.886931 0.313787 0.377844
0.891875 0.320928 0.386679
0.893416 0.323125 0.389395
0.893416 0.323125 0.389395
0.0246738 0.181888 0.121828
0.0316472 0.176608 0.113481
0.0415351 0.170916 0.102388
0.067689 0.165682 0.0925917
0.164843 0.155032 0.0966659
0.292805 0.138811 0.085893
0.469078 0.11165 0.0639811
0.625864 0.0892348 0.055848
0.737591 0.092256 0.0764019
0.816495 0.1514 0.169116
0.85243 0.219669 0.259785
0.863294 0.281865 0.324102
0.874922 0.305119 0.350301
0.884077 0.316136 0.364553
0.889555 0.32311 0.373388
0.891432 0.325216 0.376226
0.891432 0.325216 0.376226
0.00831617 0.282841 0.167651
0.0170901 0.278309 0.156542
0.0278477 0.27274 0.144594
0.0472572 0.264576 0.128145
0.147372 0.250172 0.122316
0.282002 0.237186 0.12958
0.432898 0.223026 0.122911
0.597513 0.206668 0.112123
0.733394 0.198032 0.116701
0.815793 0.199908 0.15021
0.844312 0.227619 0.215381
0.853529 0.285298 0.293797
0.864271 0.310353 0.32575
0.875212 0.32076 0.340429
0.882094 0.327367 0.349722
0.883864 0.32958 0.35259
0.883864 0.32958 0.35259
0.024094 0.413199 0.246235
0.0358434 0.40914 0.230732
0.0497444 0.40412 0.213581
0.0688334 0.397238 0.195102
0.125841 0.379583 0.170397
0.269566 0.36257 0.172869
0.420569 0.350668 0.181567
0.567498 0.342351 0.182605
0.69218 0.341299 0.197681
0.794522 0.343511 0.228275
0.859236 0.351202 0.27129
0.875044 0.365194 0.313237
0.871138 0.370794 0.332815
0.870039 0.362615 0.330083
0.868971 0.356954 0.328023
0.868788 0.355108 0.327382
0.868788 0.355108 0.327382
0.108156 0.547402 0.36202
0.118837 0.543832 0.346761
0.130816 0.540078 0.329702
0.146258 0.535485 0.309285
0.179782 0.524788 0.270039
0.274723 0.501091 0.235554
0.432166 0.488777 0.24712
0.571389 0.483482 0.267185
0.698314 0.481743 0.285786
0.797711 0.484718 0.323644
0.86566 0.491127 0.365423
0.904326 0.499474 0.399161
0.917556 0.504799 0.419104
0.918746 0.499519 0.416617
0.918959 0.495964 0.414816
0.91931 0.494774 0.414237
0.91931 0.494774 0.414237
0.24033 0.673106 0.483574
0.248692 0.670497 0.473579
0.257771 0.667765 0.462882
0.268482 0.664347 0.449821
0.290364 0.657557 0.424018
0.339391 0.643076 0.372305
0.457145 0.621973 0.348577
0.589151 0.615213 0.364584
0.709484 0.611627 0.392874
0.816129 0.610697 0.417166
0.893721 0.613779 0.450065
0.940322 0.619226 0.480781
0.964019 0.624857 0.503426
0.963699 0.621408 0.50161
0.963729 0.619089 0.500374
0.963684 0.618357 0.499977
0.963684 0.618357 0.499977
0.373861 0.781201 0.587243
0.379705 0.779293 0.580377
0.385702 0.777188 0.573007
0.392737 0.774777 0.564263
0.406989 0.76994 0.548226
0.434714 0.760632 0.518502
0.499077 0.743069 0.478004
0.609186 0.73109 0.470329
0.726589 0.727199 0.486519
0.831388 0.72575 0.511894
0.919997 0.725399 0.532494
0.979797 0.726467 0.553735
1 0.729213 0.572961
1 0.727871 0.574716
1 0.726375 0.57377
1 0.725872 0.573495
1 0.725872 0.573495
0.453819 0.879438 0.665187
0.458289 0.877791 0.66006
0.463111 0.876051 0.654765
0.468559 0.874098 0.648554
0.479301 0.870298 0.637781
0.499931 0.863432 0.619043
0.541146 0.849088 0.584573
0.623697 0.830442 0.557031
0.73431 0.828214 0.563729
0.841276 0.825986 0.579919
0.933928 0.824537 0.59913
1 0.823346 0.612451
1 0.823789 0.624262
1 0.82327 0.62768
1 0.822003 0.627054
1 0.821607 0.626871
1 0.821607 0.626871
0.479652 0.960266 0.72958
0.483955 0.958831 0.723033
0.488167 0.957397 0.716411
0.493492 0.955642 0.709255
0.503243 0.952407 0.697002
0.521233 0.946441 0.67776
0.556207 0.935149 0.649485
0.624094 0.917708 0.618448
0.724987 0.909606 0.608423
0.837827 0.907515 0.61828
0.94049 0.905257 0.632868
1 0.904433 0.646983
1 0.904891 0.659113
1 0.904662 0.66334
1 0.903655 0.662562
1 0.903319 0.662333
1 0.903319 0.662333
0.474388 0.971847 0.763226
0.478798 0.971099 0.756512
0.48307 0.970397 0.749752
0.488334 0.969467 0.741878
0.497826 0.967666 0.728344
0.515419 0.964065 0.706325
0.548837 0.956405 0.674617
0.613855 0.945724 0.640833
0.714473 0.943191 0.62797
0.832563 0.943923 0.63621
0.942 0.944274 0.650797
1 0.945571 0.666423
1 0.947997 0.682139
1 0.949248 0.689891
1 0.948959 0.689006
1 0.948882 0.688792
1 0.948882 0.688792
0.470115 0.977325 0.787457
0.474449 0.976577 0.780529
0.478981 0.975784 0.773419
0.483925 0.974929 0.765347
0.493172 0.973251 0.750988
0.510002 0.969985 0.727031
0.541192 0.963272 0.690776
0.602396 0.950988 0.650278
0.703136 0.946242 0.632425
0.824552 0.946258 0.640116
0.936767 0.946105 0.654322
1 0.946838 0.669642
1 0.948943 0.6851
1 0.95021 0.693248
1 0.95053 0.694408
1 0.950652 0.694759
1 0.950652 0.694759
0.46772 0.980575 0.803479
0.471946 0.979934 0.796567
0.476463 0.979187 0.789548
0.481346 0.978424 0.781552
0.49044 0.976837 0.76704
0.50692 0.973739 0.742199
0.537255 0.967422 0.703471
0.595407 0.954238 0.656779
0.695674 0.948196 0.635676
0.81886 0.947875 0.642664
0.933532 0.947158 0.656916
1 0.947707 0.671885
1 0.949584 0.687312
1 0.95082 0.69546
1 0.951141 0.696834
1 0.951247 0.697276
1 0.951247 0.697276
0.46717 0.98143 0.808545
0.471305 0.980743 0.801694
0.475685 0.980011 0.794522
0.4804 0.979232 0.786404
0.489525 0.977737 0.771908
0.505989 0.974884 0.747082
0.536187 0.968673 0.707591
0.593149 0.955261 0.658808
0.693874 0.949126 0.637339
0.817029 0.948394 0.643519
0.932342 0.94754 0.65774
1 0.947982 0.672633
1 0.949798 0.688029
1 0.951003 0.696254
1 0.951339 0.697658
1 0.951446 0.698116
1 0.951446 0.698116
0.46717 0.98143 0.808545
0.471305 0.980743 0.801694
0.475685 0.980011 0.794522
0.4804 0.979232 0.786404
0.489525 0.977737 0.771908
0.505989 0.974884 0.747082
0.536187 0.968673 0.707591
0.593149 0.955261 0.658808
0.693874 0.949126 0.637339
0.817029 0.948394 0.643519
0.932342 0.94754 0.65774
1 0.947982 0.672633
1 0.949798 0.688029
1 0.951003 0.696254
1 0.951339 0.697658
1 0.951446 0.698116
1 0.951446 0.698116
0.0364996 0.0895552 0.107195
0.0516213 0.0876783 0.10222
0.0755322 0.0853285 0.10248
0.103197 0.084535 0.109178
0.17116 0.0756847 0.115404
0.289372 0.0587625 0.114946
0.438331 0.0468757 0.122087
0.598169 0.0521248 0.150256
0.730358 0.0878614 0.203861
0.815366 0.147768 0.265751
0.856245 0.215839 0.322652
0.870192 0.278935 0.370138
0.88098 0.298024 0.390494
0.888121 0.30956 0.403876
0.892088 0.317052 0.412375
0.893645 0.31931 0.414939
0.893645 0.31931 0.414939
0.0389715 0.0902113 0.0981155
0.0388952 0.0889448 0.102281
0.0622873 0.0864424 0.0996262
0.0951247 0.0848707 0.101762
0.16405 0.076997 0.102419
0.287266 0.059205 0.0964065
0.439521 0.0467689 0.100343
0.600183 0.0519112 0.128359
0.731716 0.0876478 0.186236
0.815976 0.147478 0.253407
0.856458 0.215869 0.313771
0.870024 0.278904 0.363317
0.880858 0.298894 0.384527
0.888289 0.310369 0.397986
0.892607 0.317754 0.406592
0.89398 0.320073 0.409094
