Vlog/LUT/20220903 slog3 青橙LUT/肤色优化青橙Slog3_LUT_17grid.C2357.cube_18.C2357.cube
TITLE "Generated by Resolve"
LUT_3D_SIZE 9
0.0514076 0.0849165 0.0757305
0.0865034 0.0822614 0.0757458
0.213107 0.0661173 0.0633249
0.474311 0.0404974 0.0507973
0.744671 0.0902266 0.147189
0.857069 0.221225 0.297963
0.880293 0.301534 0.372473
0.892805 0.320195 0.394781
0.894331 0.322408 0.39733
0.0540169 0.102602 0.081117
0.0721141 0.0949722 0.0758984
0.163546 0.0843214 0.0653086
0.465965 0.0437476 0.0261234
0.745983 0.0910964 0.10341
0.855024 0.221851 0.276814
0.877653 0.303944 0.359121
0.891402 0.322179 0.381872
0.892989 0.324361 0.384558
0.0351568 0.190478 0.107622
0.0690013 0.176074 0.0905623
0.180713 0.163027 0.0960555
0.454337 0.132036 0.0620432
0.731472 0.104082 0.0597696
0.84715 0.224521 0.237339
0.869825 0.308354 0.33698
0.886244 0.325826 0.360601
0.888106 0.327947 0.363256
0.0495003 0.416953 0.22002
0.0817426 0.404639 0.189883
0.183734 0.375143 0.165133
0.43032 0.356359 0.18201
0.688624 0.351278 0.191287
0.842847 0.366659 0.267643
0.862699 0.386496 0.333257
0.862364 0.373175 0.327901
0.862303 0.371481 0.327276
0.261372 0.673503 0.467536
0.280262 0.667414 0.444572
0.317876 0.656031 0.40238
0.481361 0.621439 0.345174
0.713726 0.614878 0.393683
0.892866 0.618204 0.448096
0.960433 0.630396 0.504585
0.959808 0.625345 0.501778
0.959716 0.624659 0.501411
0.464027 0.880079 0.656992
0.474052 0.876463 0.64651
0.491554 0.870268 0.629374
0.559258 0.848661 0.579538
0.74374 0.828962 0.563531
0.936599 0.826688 0.599817
1 0.826596 0.62472
1 0.825116 0.627588
1 0.824765 0.627405
0.4822 0.970535 0.750835
0.4916 0.968826 0.736965
0.506966 0.965805 0.716167
0.560739 0.95346 0.665568
0.726223 0.942367 0.626902
0.947082 0.943969 0.65066
1 0.947951 0.682338
1 0.948837 0.688701
1 0.948745 0.688472
0.475608 0.979324 0.790722
0.484504 0.977844 0.776547
0.49929 0.975158 0.753491
0.548394 0.964843 0.691844
0.708492 0.94728 0.634073
0.939742 0.946761 0.656657
1 0.949523 0.687465
1 0.951034 0.696361
1 0.951141 0.696818
0.47483 0.980117 0.795819
0.483497 0.978698 0.781369
0.49836 0.976196 0.758343
0.547036 0.966186 0.695827
0.706447 0.948211 0.635538
0.938689 0.947127 0.657465
1 0.949691 0.688136
1 0.951217 0.697154
1 0.951324 0.697627
0.0458076 0.0869154 0.0882277
0.0762188 0.0842908 0.0898451
0.185061 0.0724193 0.09308
0.450233 0.0439002 0.0931258
0.735119 0.0870375 0.183474
0.857221 0.217624 0.314031
0.880919 0.299184 0.384161
0.89276 0.318074 0.406241
0.894133 0.320378 0.408728
0.0479133 0.096788 0.0879225
0.0589609 0.0907454 0.0825818
0.175677 0.0728161 0.0688792
0.453635 0.0417639 0.0505684
0.738048 0.0882124 0.143145
0.856641 0.217914 0.294835
0.879927 0.301167 0.371542
0.892515 0.319844 0.393896
0.894026 0.322042 0.396582
0.0246738 0.181888 0.121828
0.0415351 0.170916 0.102388
0.164843 0.155032 0.0966659
0.469078 0.11165 0.0639811
0.737591 0.092256 0.0764019
0.85243 0.219669 0.259785
0.874922 0.305119 0.350301
0.889555 0.32311 0.373388
0.891432 0.325216 0.376226
0.024094 0.413199 0.246235
0.0497444 0.40412 0.213581
0.125841 0.379583 0.170397
0.420569 0.350668 0.181567
0.69218 0.341299 0.197681
0.859236 0.351202 0.27129
0.871138 0.370794 0.332815
0.868971 0.356954 0.328023
0.868788 0.355108 0.327382
0.24033 0.673106 0.483574
0.257771 0.667765 0.462882
0.290364 0.657557 0.424018
0.457145 0.621973 0.348577
0.709484 0.611627 0.392874
0.893721 0.613779 0.450065
0.964019 0.624857 0.503426
0.963729 0.619089 0.500374
0.963684 0.618357 0.499977
0.453819 0.879438 0.665187
0.463111 0.876051 0.654765
0.479301 0.870298 0.637781
0.541146 0.849088 0.584573
0.73431 0.828214 0.563729
0.933928 0.824537 0.59913
1 0.823789 0.624262
1 0.822003 0.627054
1 0.821607 0.626871
0.474388 0.971847 0.763226
0.48307 0.970397 0.749752
0.497826 0.967666 0.728344
0.548837 0.956405 0.674617
0.714473 0.943191 0.62797
0.942 0.944274 0.650797
1 0.947997 0.682139
1 0.948959 0.689006
1 0.948882 0.688792
0.46772 0.980575 0.803479
0.476463 0.979187 0.789548
0.49044 0.976837 0.76704
0.537255 0.967422 0.703471
0.695674 0.948196 0.635676
0.933532 0.947158 0.656916
1 0.949584 0.687312
1 0.951141 0.696834
1 0.951247 0.697276
0.46717 0.98143 0.808545
0.475685 0.980011 0.794522
0.489525 0.977737 0.771908
0.536187 0.968673 0.707591
0.693874 0.949126 0.637339
0.932342 0.94754 0.65774
1 0.949798 0.688029
1 0.951339 0.697658
1 0.951446 0.698116
0.0205386 0.0922408 0.155459
0.0701152 0.0869001 0.14696
0.149386 0.0799725 0.156832
0.417914 0.0518502 0.172183
0.722805 0.0914778 0.237232
0.856001 0.217243 0.3402
0.881025 0.297566 0.402411
0.891096 0.316243 0.423392
0.892546 0.31841 0.426001
0.0267491 0.0981765 0.123461
0.0259861 0.0920424 0.141756
0.127825 0.084184 0.138537
0.417914 0.051957 0.131975
0.725643 0.0907149 0.206699
0.856855 0.216251 0.322972
0.88127 0.298634 0.390417
0.892073 0.317037 0.411765
0.893568 0.319203 0.414389
0.0117037 0.174548 0.155138
0.0198978 0.16524 0.14612
0.114794 0.155154 0.140932
0.467918 0.0906539 0.100267
0.730175 0.0907759 0.143099
0.856168 0.215595 0.292073
0.879606 0.300938 0.370413
0.892058 0.319295 0.392538
0.893614 0.321538 0.395315
0 0.407706 0.291005
0.0141756 0.400839 0.264027
0.0565042 0.386023 0.207797
0.406195 0.344213 0.183474
0.706142 0.322545 0.211215
0.877623 0.326482 0.281727
0.87631 0.34609 0.334676
0.874784 0.335134 0.334112
0.876814 0.336645 0.336568
0.210208 0.672099 0.506706
0.224796 0.667033 0.488823
0.252216 0.658579 0.455573
0.409461 0.62446 0.356222
0.702602 0.606912 0.391897
0.894881 0.606531 0.453681
0.969802 0.615167 0.501503
0.97023 0.609125 0.498741
0.970245 0.608347 0.498329
0.438605 0.878202 0.678111
0.446983 0.875303 0.667689
0.461494 0.870222 0.651164
0.516609 0.85127 0.59884
0.71899 0.827512 0.564508
0.929992 0.82118 0.598032
1 0.819318 0.623865
1 0.817075 0.626596
1 0.816663 0.626398
0.46244 0.973785 0.782452
0.470695 0.972488 0.769162
0.484474 0.970214 0.747814
0.531243 0.960647 0.68986
0.695384 0.944457 0.630274
0.933608 0.944839 0.651011
1 0.948058 0.68188
1 0.949157 0.689601
1 0.949096 0.689433
0.456535 0.982254 0.822278
0.464576 0.981048 0.809247
0.477821 0.979019 0.787579
0.521263 0.970932 0.72282
0.675242 0.949722 0.638712
0.923278 0.947875 0.65742
1 0.949706 0.687099
1 0.951308 0.697566
1 0.951415 0.697993
0.456062 0.983246 0.827115
0.464073 0.981949 0.814176
0.477043 0.979843 0.792523
0.520165 0.972152 0.727382
0.673182 0.950683 0.640558
0.921889 0.948272 0.658213
1 0.94992 0.687922
1 0.951507 0.698451
1 0.951598 0.698863
0 0.0957046 0.330785
0.0314641 0.0899062 0.322774
0.102144 0.0838331 0.320989
0.343877 0.0746777 0.314443
0.683375 0.110262 0.342519
0.84538 0.227939 0.406912
0.877668 0.307012 0.454658
0.885298 0.325917 0.474601
0.886213 0.328222 0.477287
0 0.103868 0.319112
0 0.0954147 0.323308
0.0763409 0.0869459 0.31812
0.32987 0.0752728 0.305379
0.68455 0.108568 0.327749
0.84831 0.226246 0.395422
0.881086 0.307103 0.445396
0.888716 0.325978 0.46511
0.889921 0.328222 0.467491
0 0.156725 0.301625
0 0.140948 0.312291
0.0253758 0.11957 0.335454
0.308141 0.0778821 0.290806
0.687495 0.106523 0.300145
0.852705 0.223545 0.374655
0.884871 0.307744 0.429984
0.893675 0.326177 0.449561
0.89482 0.328435 0.452033
0 0.390402 0.385733
0 0.38407 0.379553
0 0.374105 0.369787
0.288792 0.345052 0.350439
0.751537 0.268696 0.311559
0.883528 0.286381 0.34728
0.886152 0.312444 0.376974
0.89781 0.329671 0.398489
0.899245 0.331807 0.401022
0.152941 0.671687 0.567071
0.161532 0.667674 0.555688
0.177768 0.661265 0.535515
0.262669 0.640726 0.451362
0.686229 0.598688 0.401205
0.907423 0.5879 0.472816
0.993912 0.587243 0.501823
0.996399 0.579141 0.499397
0.996307 0.578225 0.499077
0.401785 0.875395 0.719997
0.408057 0.872877 0.708797
0.419028 0.868986 0.691752
0.457984 0.854826 0.642267
0.665766 0.828336 0.570687
0.918547 0.812848 0.596094
1 0.806851 0.624186
1 0.803372 0.627192
1 0.802915 0.627237
0.43331 0.978302 0.832349
0.43975 0.977432 0.821302
0.450889 0.975799 0.802563
0.488411 0.969711 0.742748
0.635889 0.948318 0.640467
0.906966 0.946899 0.65211
1 0.948318 0.681453
1 0.949783 0.691722
1 0.949798 0.691783
0.429175 0.986252 0.868101
0.435309 0.985489 0.857786
0.445899 0.984009 0.840665
0.481361 0.978607 0.782498
0.612985 0.953872 0.652415
0.891203 0.950439 0.659403
1 0.950134 0.687068
1 0.951812 0.699825
1 0.951904 0.700114
0.428794 0.987213 0.872297
0.434897 0.986435 0.862272
0.445411 0.985 0.845136
0.480552 0.979461 0.787457
0.61059 0.954757 0.654353
0.889158 0.950912 0.66038
1 0.950378 0.687892
1 0.952041 0.700786
1 0.952117 0.701152
0 0.104982 0.457084
0.00170901 0.102647 0.45687
0.0605783 0.100313 0.458824
0.242695 0.105379 0.464012
0.589258 0.160082 0.485969
0.792264 0.260166 0.527245
0.839872 0.332158 0.569818
0.84361 0.349065 0.597147
0.844144 0.351125 0.600427
0 0.11342 0.456306
0 0.104677 0.454978
0.0315709 0.100938 0.456672
0.218128 0.109239 0.465614
0.584298 0.158663 0.480949
0.794781 0.25803 0.519387
0.84535 0.33196 0.561166
0.84947 0.348913 0.587884
0.849928 0.351003 0.591287
0 0.130892 0.449561
0 0.119783 0.451728
0 0.107134 0.454307
0.17435 0.11783 0.469581
0.575647 0.156573 0.47306
0.799496 0.254673 0.506661
0.854002 0.331701 0.546777
0.858595 0.348745 0.572641
0.8589 0.350912 0.575769
0 0.350912 0.503075
0 0.33901 0.502785
0 0.321981 0.507927
0.0821088 0.310246 0.577768
0.591379 0.235798 0.507073
0.81297 0.245487 0.467674
0.876005 0.331334 0.504982
0.88191 0.348791 0.526207
0.882338 0.350698 0.52871
0.0757305 0.662135 0.662165
0.0771038 0.658976 0.658305
0.0798962 0.654292 0.652766
0.092668 0.640452 0.637308
0.557488 0.596643 0.610681
0.94406 0.538582 0.570504
1 0.532143 0.573922
1 0.526543 0.575479
1 0.525917 0.575769
0.341726 0.869413 0.83209
0.34464 0.867613 0.824857
0.349859 0.865064 0.812833
0.36965 0.856428 0.769955
0.491676 0.849973 0.658289
0.887602 0.806485 0.630991
1 0.784939 0.648264
1 0.777661 0.653086
1 0.776974 0.653696
0.390494 0.987533 0.924117
0.393729 0.987396 0.918334
0.39942 0.98703 0.908461
0.419104 0.98526 0.874861
0.502464 0.974563 0.748516
0.826932 0.956207 0.665125
1 0.94284 0.685222
1 0.937057 0.698192
1 0.936324 0.699016
0.38996 0.993851 0.949828
0.393088 0.993713 0.944564
0.398474 0.993408 0.935546
0.417472 0.991806 0.904616
0.493843 0.980652 0.782177
0.794034 0.961151 0.674434
1 0.953201 0.695521
1 0.953918 0.710491
1 0.953933 0.710521
0.38999 0.994598 0.95288
0.393103 0.994476 0.947601
0.398428 0.994186 0.938827
0.417411 0.992569 0.908278
0.49305 0.981628 0.787167
0.790173 0.961776 0.675654
1 0.953536 0.69662
1 0.954131 0.711803
1 0.954147 0.711833
0 0.123369 0.508324
0.0075227 0.125246 0.518303
0.0431067 0.127871 0.532403
0.158099 0.137301 0.561425
0.459068 0.200046 0.621836
0.696406 0.305913 0.668986
0.759731 0.370489 0.6981
0.760647 0.386831 0.718868
0.760586 0.388571 0.720913
0 0.129213 0.503716
0 0.123018 0.508431
0.0207523 0.125566 0.523613
0.136706 0.140002 0.562966
0.448875 0.200443 0.62324
0.695888 0.303471 0.667475
0.764538 0.369619 0.69543
0.765866 0.385931 0.716106
0.765805 0.387655 0.718334
0 0.142031 0.4925
0 0.133608 0.500603
0 0.122606 0.508583
0.100786 0.146227 0.565637
0.431662 0.202304 0.626368
0.69485 0.299992 0.664805
0.771847 0.368444 0.690776
0.773724 0.384649 0.711681
0.773709 0.386404 0.713756
0 0.271015 0.562524
0 0.253391 0.55404
0 0.223362 0.538247
0.0122072 0.192645 0.582101
0.369299 0.21297 0.637903
0.691661 0.290791 0.65655
0.793072 0.36553 0.675456
0.796658 0.381231 0.695994
0.797055 0.383185 0.698314
0 0.619684 0.755596
0 0.617243 0.760494
0 0.613611 0.770916
0 0.596567 0.79762
0.35108 0.561837 0.860166
0.779568 0.498268 0.810925
0.899855 0.500023 0.775616
0.899107 0.494453 0.769238
0.898833 0.493721 0.768566
0.297322 0.848859 0.921859
0.296727 0.847196 0.920363
0.296254 0.844877 0.918257
0.294606 0.837659 0.911513
0.336355 0.838117 0.91516
0.743389 0.796506 0.898756
1 0.749081 0.862806
1 0.736385 0.857237
1 0.734737 0.85655
0.36965 0.991409 0.995956
0.370031 0.991745 0.994553
0.370718 0.992309 0.992157
0.371679 0.987915 0.982666
0.388144 0.97731 0.948562
0.617182 0.987045 0.897505
0.968475 0.9411 0.868742
1 0.926482 0.862776
1 0.925048 0.862013
0.373678 0.996674 1
0.373831 0.997009 1
0.37435 0.997513 1
0.377157 0.998978 0.999649
0.397162 1 0.968139
0.572625 1 0.888075
0.931716 0.978943 0.854292
1 0.97171 0.856321
1 0.971664 0.855863
0.374258 0.997177 1
0.374472 0.997543 1
0.374945 0.998138 1
0.377874 0.999542 1
0.397589 1 0.970321
0.567178 1 0.886412
0.925933 0.979141 0.851835
1 0.971481 0.854429
1 0.97145 0.853971
0.0185092 0.145708 0.49308
0.0325933 0.149447 0.504479
0.0521401 0.15462 0.521157
0.138445 0.169986 0.559686
0.378775 0.229633 0.637461
0.624414 0.342733 0.716548
0.699123 0.406806 0.747845
0.699001 0.422171 0.763806
0.699092 0.423789 0.765423
0.00355535 0.15021 0.490013
0.0176699 0.145373 0.494179
0.0399176 0.150668 0.511559
0.120134 0.168322 0.555673
0.369238 0.231235 0.641703
0.62153 0.340505 0.716411
0.702327 0.405844 0.747127
0.702556 0.421164 0.763149
0.702541 0.422812 0.764843
0 0.160876 0.483803
0 0.153933 0.489677
0.016434 0.14493 0.495933
0.0917525 0.168032 0.551171
0.353109 0.234318 0.648371
0.617197 0.337316 0.716609
0.707103 0.404456 0.745769
0.707988 0.419684 0.762081
0.707927 0.421347 0.763684
0 0.222202 0.521569
0 0.207446 0.508858
0 0.182284 0.487312
0.0272068 0.180026 0.540352
0.295277 0.247791 0.668376
0.602365 0.329763 0.718013
0.720851 0.400732 0.741711
0.724041 0.415641 0.758129
0.724147 0.417227 0.759838
0 0.579965 0.774441
0 0.573419 0.770611
0 0.562661 0.76463
0.00468452 0.547066 0.799481
0.278645 0.526665 0.864591
0.643046 0.485115 0.843534
0.795544 0.483803 0.816999
0.795773 0.477516 0.811292
0.795605 0.476722 0.810559
0.283894 0.819089 0.93843
0.282017 0.817853 0.939055
0.279759 0.815961 0.939818
0.275639 0.809857 0.943282
0.323033 0.804669 0.961669
0.630594 0.777447 0.950835
0.907744 0.735073 0.923552
0.911391 0.721523 0.919829
0.911269 0.720012 0.91957
0.376028 0.97641 1
0.375021 0.975174 1
0.3738 0.973541 1
0.370398 0.968154 1
0.366812 0.955718 1
0.506462 0.977584 1
0.834012 0.936431 0.991455
0.95491 0.914122 0.977798
0.954879 0.912627 0.977142
0.387442 0.994171 1
0.386633 0.994659 1
0.385428 0.995438 1
0.382803 0.997543 1
0.380652 1 1
0.464012 1 1
0.78027 1 1
0.963638 0.99382 0.996567
0.967437 0.993362 0.996048
0.388464 0.99472 1
0.38761 0.995224 1
0.386404 0.995987 1
0.383642 0.998108 1
0.381415 1 1
0.459098 1 1
0.773678 1 1
0.957702 0.994324 0.996597
0.968673 0.993133 0.995331
0.0373083 0.157549 0.475944
0.0471962 0.162417 0.486366
0.06215 0.169085 0.502647
0.139391 0.186908 0.540108
0.350179 0.244495 0.621576
0.588739 0.357717 0.718547
0.680415 0.421866 0.760357
0.689723 0.431662 0.771969
0.69099 0.432837 0.773419
0.0247501 0.161593 0.476814
0.0368658 0.157259 0.476341
0.051957 0.164279 0.4934
0.12311 0.184405 0.535515
0.341634 0.246448 0.627298
0.58555 0.355856 0.719478
0.680613 0.422095 0.760616
0.69012 0.431952 0.772381
0.691325 0.433188 0.773816
0.00198367 0.172381 0.480095
0.0174105 0.16524 0.476905
0.035584 0.156832 0.478309
0.0961624 0.180224 0.527138
0.327306 0.249866 0.635904
0.580316 0.353384 0.720836
0.680919 0.422431 0.761013
0.690654 0.432471 0.773007
0.691844 0.433768 0.774334
0 0.225437 0.498421
0 0.210117 0.485695
0 0.187091 0.478157
0.0412299 0.18706 0.515282
0.275654 0.263462 0.659052
0.563882 0.347982 0.726879
0.689769 0.419501 0.759731
0.692302 0.433982 0.774563
0.69337 0.435401 0.776104
0.0168765 0.558373 0.762707
0.0149386 0.551049 0.757092
0.0126802 0.539513 0.748333
0.0274052 0.519295 0.77023
0.259937 0.506325 0.848447
0.588479 0.476829 0.842054
0.737682 0.475624 0.818936
0.744656 0.470954 0.812421
0.744427 0.47013 0.811688
0.303716 0.797284 0.929671
0.300511 0.796948 0.931762
0.296681 0.79588 0.934524
0.28954 0.791531 0.942061
0.332296 0.786023 0.961654
0.605158 0.763134 0.944976
0.865995 0.724392 0.918135
0.872694 0.711223 0.915114
0.872328 0.709682 0.914931
0.388617 0.963195 1
0.387625 0.961852 1
0.386053 0.959808 1
0.382239 0.954437 1
0.377447 0.941512 1
0.484886 0.964843 1
0.778439 0.929549 0.984192
0.89926 0.908354 0.969314
0.89926 0.906783 0.968765
0.393149 0.993286 1
0.393057 0.993637 1
0.392935 0.994171 1
0.392874 0.995697 1
0.390249 0.999847 1
0.443412 1 1
0.71841 1 1
0.894301 0.998489 1
0.907546 0.996139 1
0.392966 0.994018 1
0.392889 0.994369 1
0.39292 0.994873 1
0.392859 0.996399 1
0.390845 1 1
0.439261 1 1
0.712428 1 1
0.888609 1 1
0.90927 1 1
0.0372625 0.158892 0.479164
0.049073 0.164034 0.484031
0.0634318 0.17084 0.50016
0.139971 0.188922 0.537179
0.347112 0.246433 0.618723
0.584436 0.359686 0.718105
0.680903 0.422385 0.760983
0.690272 0.432059 0.772549
0.691432 0.433295 0.773922
0.0248875 0.162997 0.48011
0.0374762 0.158618 0.478035
0.0536049 0.165972 0.491051
0.124117 0.186313 0.532387
0.338689 0.248203 0.624292
0.581521 0.357794 0.719066
0.681071 0.422583 0.761227
0.690578 0.43238 0.772915
0.691752 0.433646 0.774227
0.00256352 0.173892 0.483574
0.0175937 0.166445 0.480186
0.0378271 0.158282 0.476295
0.097322 0.182025 0.524163
0.324636 0.251789 0.633448
0.576349 0.355352 0.720821
0.681346 0.422889 0.761593
0.691051 0.432898 0.773495
0.692241 0.434195 0.774746
0 0.225589 0.495003
0 0.210956 0.488991
0 0.188556 0.481697
0.0430304 0.1879 0.512047
0.273808 0.265354 0.656855
0.559487 0.350286 0.727275
0.686046 0.421836 0.761471
0.692454 0.434409 0.775006
0.69369 0.435752 0.776501
0.0213626 0.555627 0.760067
0.0198215 0.548394 0.754849
0.0172427 0.536706 0.745434
0.0310216 0.515618 0.765042
0.257008 0.502983 0.846098
0.582406 0.475502 0.841245
0.730648 0.474784 0.818738
0.738689 0.470069 0.81178
0.73843 0.469215 0.811017
0.307546 0.794369 0.927825
0.304189 0.794003 0.930083
0.299809 0.793164 0.933211
0.291722 0.789242 0.941299
0.334417 0.783871 0.961456
0.603922 0.76083 0.944488
0.864744 0.722393 0.917983
0.872312 0.709194 0.9149
0.871824 0.707485 0.914549
0.391257 0.960952 1
0.390372 0.959579 1
0.388968 0.957824 1
0.384573 0.952346 1
0.379675 0.939544 1
0.484581 0.962921 1
0.777813 0.927489 0.983444
0.89926 0.906249 0.968566
0.899275 0.904677 0.968017
0.393149 0.993301 1
0.393057 0.993637 1
0.392935 0.994171 1
0.392874 0.995666 1
0.392142 0.99942 1
0.442741 1 1
0.714626 1 1
0.887236 0.997894 1
0.901534 0.995468 1
0.392966 0.994034 1
0.392905 0.994354 1
0.39292 0.994873 1
0.392859 0.996384 1
0.392752 1 1
0.438544 1 1
0.70811 1 1
0.880842 1 1
0.902373 1 1
