Vlog/LUT/20220903 slog3 青橙LUT/肤色优化青橙Rec709_LUT_17grid.C2357.cube_18.C2357.cube
TITLE "Generated by Resolve"
LUT_3D_SIZE 9
0.0514076 0.0849165 0.0757305
0.184909 0.0679332 0.0590524
0.371832 0.0346227 0.0269322
0.523461 0.0142672 0.00947585
0.636057 0.0117647 0.00936904
0.706737 0.0258946 0.0261082
0.740475 0.0545357 0.059205
0.734981 0.0966812 0.108553
0.706706 0.146639 0.16759
0.0379797 0.16788 0.0787823
0.19765 0.157946 0.083238
0.385214 0.142473 0.0683604
0.565698 0.129427 0.055024
0.688106 0.133867 0.0623484
0.762921 0.153201 0.0817884
0.799771 0.183459 0.118151
0.80412 0.221897 0.173831
0.777493 0.268879 0.242054
0.0149538 0.304036 0.110506
0.208362 0.294163 0.114885
0.393271 0.283513 0.119844
0.540932 0.281544 0.125475
0.650111 0.289769 0.139437
0.730526 0.306859 0.158953
0.783154 0.331365 0.196796
0.813062 0.360937 0.254032
0.817334 0.396109 0.319875
0.0433509 0.43714 0.159472
0.233921 0.427726 0.158724
0.416159 0.417716 0.168734
0.556115 0.418097 0.180758
0.663096 0.42652 0.199542
0.745068 0.441016 0.225208
0.800488 0.460319 0.275044
0.834211 0.483146 0.340002
0.848157 0.509758 0.402609
0.136339 0.548302 0.22034
0.305592 0.543496 0.221027
0.464683 0.537835 0.230411
0.5888 0.539055 0.242481
0.690425 0.544991 0.2598
0.771481 0.554116 0.293767
0.830259 0.56701 0.349371
0.868025 0.583841 0.413931
0.886717 0.605539 0.474189
0.264576 0.639933 0.299046
0.39791 0.640116 0.293965
0.520821 0.639628 0.298909
0.626429 0.641474 0.311925
0.718791 0.645212 0.33608
0.796017 0.651591 0.376761
0.857099 0.661128 0.4309
0.901686 0.674113 0.486473
0.927184 0.691417 0.541985
0.393866 0.712337 0.417136
0.487205 0.719646 0.408377
0.580316 0.724575 0.408179
0.66894 0.728725 0.418769
0.750515 0.733349 0.441398
0.822629 0.739452 0.475761
0.884672 0.747768 0.516976
0.932479 0.758541 0.561608
0.96379 0.773159 0.608652
0.509331 0.77731 0.531365
0.570016 0.791119 0.524941
0.639368 0.801053 0.523262
0.711757 0.808835 0.52903
0.781506 0.815763 0.542763
0.848234 0.82298 0.565057
0.908858 0.830823 0.594247
0.958846 0.841093 0.628138
0.993637 0.854566 0.667933
0.60116 0.842069 0.623896
0.642481 0.858701 0.620813
0.689784 0.873655 0.614969
0.74609 0.884947 0.614572
0.808286 0.894469 0.62211
0.87245 0.902846 0.637018
0.933959 0.911849 0.659358
0.985885 0.922362 0.692897
1 0.934905 0.72575
0.00848402 0.0935073 0.170321
0.125368 0.081178 0.157839
0.318441 0.0485542 0.121553
0.490684 0.0263981 0.0953689
0.622827 0.0203555 0.087541
0.709758 0.0305943 0.0995499
0.75729 0.0559091 0.127916
0.764416 0.0957351 0.166918
0.736996 0.146838 0.213779
0 0.182467 0.162387
0.140276 0.180179 0.15877
0.359808 0.158236 0.138582
0.558801 0.140932 0.124117
0.693599 0.141466 0.129229
0.781811 0.155901 0.150027
0.83006 0.182101 0.183993
0.842069 0.219013 0.228763
0.822873 0.2654 0.278355
0 0.323156 0.182193
0.134737 0.324575 0.17966
0.350622 0.306615 0.183185
0.521294 0.298604 0.18146
0.652262 0.300511 0.188479
0.757824 0.309865 0.206958
0.833341 0.32723 0.240482
0.871885 0.354376 0.287846
0.876158 0.390127 0.340536
0 0.46183 0.22739
0.160372 0.45864 0.216815
0.372076 0.442039 0.220768
0.535195 0.435981 0.228946
0.656672 0.439582 0.246433
0.750851 0.449226 0.277302
0.822171 0.46334 0.318303
0.873396 0.481926 0.364401
0.900526 0.50547 0.411887
0.0653239 0.57525 0.289525
0.236652 0.572168 0.275471
0.421698 0.560784 0.276295
0.565972 0.556252 0.287282
0.680705 0.557168 0.305928
0.7738 0.562081 0.337362
0.845365 0.571496 0.381521
0.896468 0.585153 0.42974
0.928405 0.603769 0.47805
0.194324 0.664698 0.373205
0.333639 0.665095 0.354986
0.47866 0.659754 0.350149
0.600931 0.657145 0.35787
0.705821 0.657359 0.375418
0.795727 0.660304 0.405661
0.870024 0.666621 0.446143
0.927123 0.676509 0.490852
0.964477 0.690669 0.537881
0.33463 0.735058 0.466712
0.434577 0.741924 0.451423
0.540261 0.744228 0.444602
0.64181 0.745174 0.448066
0.735576 0.746593 0.461677
0.819989 0.749905 0.485969
0.894255 0.754864 0.518135
0.95491 0.762158 0.555276
0.997925 0.773373 0.596063
0.463706 0.798169 0.557046
0.524529 0.812512 0.54551
0.599863 0.821561 0.537697
0.681315 0.826871 0.536507
0.762234 0.83093 0.544015
0.840742 0.835157 0.560143
0.914153 0.839933 0.583413
0.977569 0.846754 0.612451
1 0.85684 0.645991
0.565713 0.860059 0.639109
0.597803 0.880293 0.626444
0.64741 0.894575 0.614511
0.71104 0.904509 0.608667
0.783398 0.911315 0.610864
0.860868 0.916945 0.621836
0.936126 0.922576 0.639597
1 0.929885 0.6654
1 0.940444 0.706355
0 0.0973068 0.310918
0.0760357 0.0849775 0.30248
0.237812 0.0632334 0.275792
0.42855 0.0403754 0.242252
0.583124 0.0308843 0.220325
0.690806 0.0375067 0.215198
0.755154 0.0602274 0.224353
0.777508 0.0977798 0.242542
0.764218 0.146563 0.268421
0 0.190326 0.310399
0.0685283 0.195102 0.317708
0.281056 0.177661 0.300191
0.499046 0.157656 0.277028
0.660121 0.152651 0.265324
0.765499 0.163546 0.267567
0.831159 0.18616 0.279942
0.858412 0.220508 0.301122
0.852949 0.264851 0.3299
0 0.333623 0.326482
0.0536202 0.344991 0.334142
0.277531 0.328786 0.316274
0.500664 0.308675 0.296971
0.667842 0.301122 0.29163
0.782544 0.307897 0.301305
0.861341 0.324987 0.320409
0.905516 0.351843 0.348608
0.917189 0.386877 0.38381
0 0.473854 0.360769
0.0724804 0.482963 0.357748
0.289952 0.469169 0.337942
0.494102 0.452873 0.341085
0.635065 0.451392 0.347921
0.752239 0.454856 0.359625
0.850797 0.462562 0.376318
0.920485 0.476585 0.40174
0.956527 0.498024 0.43592
0 0.594354 0.416526
0.151324 0.596963 0.401617
0.343359 0.586816 0.381415
0.524376 0.573312 0.383764
0.656229 0.569207 0.394217
0.763684 0.570245 0.411536
0.849973 0.576349 0.435935
0.920577 0.58613 0.463111
0.971206 0.600092 0.494331
0.124453 0.685252 0.474296
0.252872 0.689403 0.455604
0.41033 0.683162 0.436637
0.557595 0.674556 0.43592
0.67982 0.670558 0.445289
0.783642 0.670054 0.461509
0.871946 0.673075 0.485481
0.944121 0.679377 0.514977
0.997345 0.689616 0.548241
0.271717 0.755734 0.534951
0.367117 0.765011 0.517525
0.481758 0.766583 0.502739
0.599008 0.764004 0.499702
0.707683 0.761578 0.50605
0.805219 0.761486 0.520088
0.892989 0.763134 0.540612
0.968917 0.766537 0.56614
1 0.773785 0.596719
0.412467 0.818204 0.599359
0.46775 0.834623 0.585184
0.543664 0.844343 0.570672
0.633844 0.847822 0.562661
0.728511 0.8486 0.564065
0.820325 0.849256 0.573419
0.908873 0.850584 0.589593
0.98793 0.853437 0.610574
1 0.859922 0.637186
0.517281 0.880385 0.662638
0.542321 0.902434 0.646601
0.590814 0.917449 0.629587
0.660136 0.926314 0.617288
0.743755 0.930602 0.61355
0.835004 0.932952 0.619562
0.926818 0.934997 0.63267
1 0.938643 0.652445
1 0.945602 0.683345
0 0.103014 0.397055
0.0324407 0.0928969 0.395834
0.161776 0.0821851 0.385168
0.354528 0.0615854 0.356603
0.525475 0.0496834 0.330953
0.653666 0.0523079 0.315602
0.733669 0.0717632 0.311879
0.771008 0.106157 0.316121
0.772427 0.152087 0.327398
0 0.199039 0.411307
0.0229038 0.206622 0.426795
0.194888 0.201923 0.426169
0.417777 0.182666 0.404181
0.603494 0.171878 0.382818
0.729 0.177859 0.372457
0.811276 0.196841 0.370779
0.855436 0.227527 0.376745
0.864698 0.268849 0.389822
0 0.342824 0.438361
0 0.359365 0.458091
0.190021 0.352163 0.45333
0.422782 0.331212 0.432776
0.615946 0.318013 0.416571
0.750225 0.320546 0.410864
0.844923 0.334234 0.413977
0.905303 0.357305 0.424613
0.932143 0.389319 0.442618
0 0.482536 0.473564
0.004654 0.499962 0.487877
0.204654 0.491356 0.477256
0.43006 0.472953 0.457832
0.615839 0.460822 0.446616
0.761791 0.456657 0.443442
0.868055 0.462303 0.450309
0.943435 0.475059 0.463752
0.988525 0.494774 0.483482
0 0.608179 0.524224
0.0783398 0.616083 0.52221
0.257862 0.609766 0.506569
0.456611 0.594781 0.48748
0.61828 0.582803 0.491127
0.741985 0.580102 0.493706
0.850019 0.581094 0.499016
0.945693 0.584848 0.507881
1 0.594354 0.524025
0.0675212 0.701442 0.566751
0.183886 0.707942 0.557229
0.333013 0.705348 0.539025
0.49279 0.696025 0.521828
0.640635 0.685222 0.524437
0.759899 0.680919 0.531807
0.860929 0.680949 0.543481
0.948714 0.683711 0.558679
1 0.688869 0.574304
0.218601 0.772152 0.607706
0.303975 0.783841 0.59704
0.414893 0.78793 0.579965
0.538735 0.785351 0.566705
0.66569 0.778531 0.566369
0.778668 0.774258 0.574044
0.879103 0.772641 0.58529
0.970016 0.772702 0.599313
1 0.775616 0.616358
0.366354 0.834867 0.651118
0.411933 0.854093 0.640131
0.4804 0.866087 0.624079
0.572183 0.8701 0.609384
0.679545 0.868254 0.603983
0.787015 0.864729 0.608408
0.890318 0.86273 0.618235
0.985595 0.861784 0.630182
1 0.864256 0.647349
0.473167 0.897749 0.704173
0.486671 0.922286 0.686091
0.527321 0.939757 0.665278
0.596292 0.949157 0.646342
0.688853 0.952026 0.63621
0.794369 0.950759 0.637095
0.903456 0.948959 0.646128
1 0.949035 0.660197
1 0.952056 0.683421
0 0.10898 0.449195
0 0.102876 0.455039
0.103716 0.101228 0.458885
0.278721 0.0875868 0.44242
0.455238 0.0759289 0.419364
0.599313 0.075349 0.399954
0.693843 0.0914473 0.388525
0.745739 0.122026 0.384344
0.760861 0.164324 0.385336
0 0.208545 0.47599
0 0.220325 0.498604
0.123903 0.226215 0.514031
0.331609 0.212345 0.502144
0.527581 0.199985 0.481407
0.673823 0.200427 0.464134
0.77171 0.215091 0.453605
0.831113 0.241764 0.449317
0.856306 0.279255 0.451133
0 0.351995 0.515129
0 0.370687 0.542519
0.117266 0.374563 0.55697
0.337911 0.357687 0.545907
0.546304 0.341588 0.526986
0.698222 0.339864 0.512673
0.809094 0.349813 0.504845
0.884886 0.368826 0.50312
0.927535 0.396597 0.50779
0 0.490745 0.556939
0 0.512383 0.58323
0.134279 0.511666 0.588159
0.352178 0.495842 0.576364
0.555245 0.479683 0.560815
0.715511 0.472114 0.549859
0.837171 0.473747 0.543679
0.926574 0.483253 0.544289
0.987137 0.499321 0.550683
0 0.617365 0.607309
0.0293889 0.630335 0.618067
0.190814 0.627832 0.614359
0.383352 0.614801 0.60061
0.565713 0.599695 0.584924
0.721187 0.588876 0.574853
0.85417 0.583108 0.569162
0.956451 0.585336 0.572168
1 0.592767 0.580926
0.03505 0.71223 0.644068
0.132799 0.722087 0.645426
0.267124 0.722606 0.637476
0.42472 0.715404 0.62237
0.582116 0.704097 0.608179
0.723796 0.693462 0.611353
0.838376 0.690257 0.612131
0.947234 0.688289 0.612879
1 0.68716 0.615717
0.184848 0.783566 0.675319
0.253407 0.798398 0.674296
0.355856 0.804623 0.664271
0.474861 0.804623 0.64976
0.605264 0.798733 0.636744
0.739422 0.7888 0.638743
0.853422 0.783444 0.644129
0.957122 0.780789 0.65037
1 0.779553 0.658457
0.33254 0.84712 0.714046
0.364706 0.86894 0.707881
0.423133 0.883452 0.693996
0.507118 0.890623 0.676875
0.615061 0.889555 0.661768
0.738338 0.882475 0.658473
0.857954 0.876188 0.665309
0.969375 0.871809 0.672557
1 0.870573 0.683864
0.436805 0.910582 0.769635
0.437751 0.937987 0.755245
0.466529 0.958358 0.732769
0.527245 0.970855 0.707469
0.62092 0.974182 0.686763
0.737865 0.970748 0.678813
0.864286 0.96492 0.684245
0.983276 0.960937 0.694972
1 0.960159 0.713176
0 0.114076 0.473777
0 0.112581 0.492241
0.0719463 0.114992 0.510781
0.208362 0.112505 0.514199
0.377661 0.104356 0.497612
0.526726 0.104845 0.476127
0.636744 0.118013 0.456794
0.701991 0.145235 0.444282
0.730465 0.183566 0.437247
0 0.216861 0.519158
0 0.231342 0.559503
0.0707713 0.243076 0.595651
0.248859 0.236271 0.602213
0.439628 0.226154 0.589761
0.60148 0.223758 0.569497
0.714229 0.236027 0.549874
0.788434 0.260502 0.532387
0.828199 0.295293 0.520134
0 0.358511 0.576761
0 0.377295 0.623957
0.0648966 0.387274 0.661173
0.25658 0.37641 0.667704
0.461021 0.362051 0.657679
0.628473 0.357183 0.642008
0.754131 0.364416 0.626093
0.845197 0.380728 0.611368
0.902937 0.405509 0.600473
0 0.495323 0.631388
0 0.51754 0.67892
0.0847791 0.522011 0.707729
0.276539 0.510536 0.714427
0.480781 0.494347 0.707332
0.650004 0.484749 0.694133
0.785763 0.483406 0.67895
0.889418 0.490272 0.666651
0.964858 0.504158 0.65922
0 0.621027 0.687037
0.00427253 0.636408 0.720134
0.141146 0.637415 0.737804
0.31284 0.627527 0.741634
0.497444 0.612222 0.734386
0.662348 0.599405 0.722469
0.806714 0.591363 0.70985
0.922789 0.590921 0.700114
1 0.596017 0.695781
0.0296788 0.715557 0.725795
0.102419 0.729046 0.747356
0.215732 0.732494 0.757137
0.361425 0.727611 0.756527
0.516899 0.717617 0.748699
0.670863 0.705455 0.73695
0.81622 0.694469 0.72546
0.945876 0.687572 0.71873
1 0.685008 0.717723
0.173571 0.787594 0.758801
0.220035 0.806195 0.774044
0.305135 0.815473 0.777707
0.416983 0.817502 0.772519
0.540871 0.814496 0.761578
0.678309 0.805661 0.747402
0.814542 0.794553 0.745296
0.93611 0.788281 0.741085
1 0.77818 0.735195
0.31458 0.852842 0.797711
0.328786 0.877897 0.805417
0.372625 0.895537 0.802762
0.446525 0.905318 0.792294
0.54609 0.907546 0.775509
0.667979 0.903441 0.756191
0.809979 0.891768 0.751049
0.939239 0.883391 0.757336
1 0.878889 0.765057
0.415122 0.918196 0.843015
0.400381 0.948791 0.843656
0.414084 0.972168 0.834836
0.463416 0.987518 0.818341
0.547936 0.994171 0.796506
0.662699 0.993439 0.774533
0.805188 0.984329 0.764965
0.948669 0.97467 0.773007
1 0.970275 0.785992
0 0.117906 0.473045
0 0.121904 0.502724
0.0506447 0.129381 0.536065
0.1523 0.135637 0.559121
0.301747 0.133181 0.557015
0.445914 0.136141 0.542748
0.56463 0.148379 0.522438
0.643702 0.173007 0.502037
0.684596 0.208667 0.485435
0 0.223575 0.538827
0 0.240833 0.595773
0.0435645 0.255497 0.645762
0.184314 0.257099 0.66862
0.356847 0.251286 0.667826
0.519097 0.24889 0.655558
0.643122 0.25835 0.639124
0.728832 0.280568 0.620737
0.782528 0.312993 0.601312
0 0.361852 0.619623
0 0.381506 0.681544
0.0365148 0.395773 0.728954
0.195224 0.392386 0.746609
0.381628 0.382345 0.745861
0.553445 0.376165 0.736614
0.686732 0.380758 0.72459
0.788815 0.394339 0.710384
0.859922 0.416419 0.695994
0 0.495384 0.692515
0 0.517968 0.752239
0.0584573 0.52694 0.789746
0.223041 0.520928 0.803891
0.409689 0.508064 0.803525
0.579049 0.498329 0.796017
0.720485 0.495003 0.784451
0.836057 0.498772 0.771191
0.92343 0.510674 0.759106
0 0.618051 0.758663
0.0056611 0.635218 0.803891
0.113954 0.639857 0.830976
0.262272 0.63418 0.842771
0.432837 0.621195 0.842908
0.594476 0.608942 0.837034
0.743175 0.599954 0.825711
0.869703 0.597635 0.812543
0.974563 0.60119 0.801175
0.0532235 0.710613 0.800855
0.0987259 0.727703 0.836164
0.186114 0.735149 0.858213
0.312139 0.733288 0.868193
0.45687 0.725155 0.869703
0.606256 0.714153 0.864454
0.755779 0.702571 0.853727
0.89424 0.694194 0.841535
1 0.690394 0.82977
0.188922 0.784543 0.833478
0.212039 0.806287 0.862318
0.272831 0.819654 0.880079
0.368261 0.824613 0.887648
0.482734 0.823316 0.888395
0.613825 0.816052 0.88278
0.757275 0.804776 0.872297
0.902342 0.792737 0.859815
1 0.782147 0.848081
0.322438 0.852033 0.86569
0.316213 0.880323 0.887373
0.339132 0.901808 0.900603
0.395758 0.914656 0.905104
0.483742 0.919554 0.902159
0.59855 0.917647 0.893599
0.73843 0.908507 0.880766
0.892744 0.895369 0.871061
1 0.884169 0.859068
0.415915 0.920211 0.900435
0.383871 0.953841 0.915755
0.379171 0.980896 0.923659
0.411612 0.999344 0.923766
0.483925 1 0.917006
0.590707 1 0.904662
0.726131 1 0.88838
0.891325 0.992126 0.877607
1 0.981842 0.883253
0 0.121218 0.450065
0 0.132738 0.486122
0.043061 0.146227 0.526864
0.11931 0.159289 0.563806
0.242786 0.163607 0.578042
0.373312 0.169696 0.576211
0.487953 0.182589 0.563836
0.574456 0.204868 0.545403
0.625498 0.238056 0.525338
0 0.231037 0.528405
0 0.252735 0.593759
0.0380407 0.270893 0.65565
0.148089 0.278538 0.691478
0.293584 0.278355 0.703426
0.441566 0.279042 0.701411
0.568704 0.287053 0.691722
0.661509 0.306676 0.67863
0.724758 0.335943 0.662608
0 0.366339 0.62681
0 0.388876 0.69955
0.0364385 0.404959 0.754696
0.162631 0.407645 0.782681
0.321935 0.403052 0.791363
0.483619 0.398703 0.788937
0.617792 0.402136 0.782086
0.724895 0.413855 0.772686
0.80473 0.432975 0.760388
0 0.497139 0.718868
0 0.519585 0.783841
0.0648356 0.530434 0.826795
0.196902 0.530053 0.847883
0.357473 0.521935 0.852888
0.516289 0.513695 0.849729
0.654688 0.510094 0.842435
0.773754 0.512581 0.833402
0.869215 0.522408 0.823453
0.00469978 0.611933 0.790967
0.0424811 0.630823 0.842359
0.120546 0.639445 0.876234
0.238758 0.638209 0.892409
0.387121 0.629541 0.895735
0.53611 0.61973 0.892226
0.677821 0.611933 0.884596
0.807889 0.608148 0.875029
0.919219 0.610651 0.865446
0.111757 0.701045 0.83769
0.132357 0.721309 0.880812
0.190402 0.73286 0.909636
0.289296 0.73518 0.924147
0.41651 0.730388 0.928084
0.551598 0.722179 0.925475
0.692988 0.711986 0.917754
0.830961 0.703731 0.907637
0.958694 0.699245 0.89688
0.238132 0.775814 0.873472
0.238987 0.80058 0.910216
0.27335 0.81796 0.935729
0.344091 0.826841 0.94966
0.442237 0.828321 0.95465
0.559533 0.823667 0.953323
0.694713 0.814145 0.946654
0.838758 0.802548 0.935836
0.983658 0.791623 0.923354
0.359625 0.845655 0.905501
0.334539 0.876982 0.936263
0.334798 0.90161 0.958648
0.369055 0.918502 0.972641
0.439323 0.926543 0.978683
0.540963 0.92726 0.978454
0.670771 0.920653 0.972229
0.824384 0.908446 0.960906
0.987716 0.894347 0.947143
0.442741 0.916625 0.937331
0.394507 0.952956 0.962737
0.370947 0.983185 0.982376
0.382788 1 0.994934
0.436469 1 1
0.530068 1 0.998657
0.655573 1 0.991424
0.815213 1 0.979187
0.988861 0.994064 0.968368
0 0.127138 0.449546
0 0.142992 0.461418
0.0483864 0.163607 0.492226
0.108293 0.182681 0.532967
0.206744 0.193927 0.560037
0.317006 0.2047 0.571878
0.419196 0.219944 0.571145
0.503838 0.241672 0.560388
0.578378 0.263249 0.563272
0 0.238697 0.507195
0.00856031 0.266697 0.559136
0.0535592 0.28864 0.629511
0.139651 0.300221 0.678645
0.255741 0.305852 0.704768
0.381765 0.310842 0.714748
0.500572 0.319997 0.714214
0.594827 0.337819 0.707652
0.66302 0.36434 0.696422
0 0.373739 0.601129
0.00775158 0.39852 0.683879
0.064622 0.41474 0.74696
0.162844 0.422522 0.786511
0.2907 0.423972 0.805661
0.430838 0.423545 0.811688
0.557565 0.427497 0.811048
0.661662 0.438209 0.806378
0.74464 0.45507 0.798489
0.015259 0.497475 0.708232
0.0419623 0.519356 0.780529
0.104814 0.532967 0.831525
0.204227 0.537774 0.860914
0.332021 0.535348 0.872526
0.470634 0.530221 0.87364
0.597604 0.528405 0.870192
0.711788 0.531075 0.864698
0.809201 0.539559 0.858579
0.097673 0.602014 0.78793
0.114122 0.62356 0.848051
0.163439 0.636378 0.888548
0.248737 0.640421 0.909957
0.366155 0.63711 0.916091
0.494514 0.631022 0.913573
0.622843 0.625544 0.907179
0.746761 0.622431 0.899916
0.858198 0.624384 0.893629
0.200977 0.688411 0.843793
0.199832 0.711574 0.894011
0.231708 0.727123 0.927565
0.299748 0.734173 0.944442
0.398962 0.733913 0.947951
0.514046 0.729564 0.943633
0.64033 0.722347 0.934936
0.770245 0.715633 0.925658
0.895125 0.711528 0.917861
0.317281 0.76318 0.885801
0.299214 0.790494 0.928222
0.308721 0.811521 0.956985
0.351125 0.824613 0.972168
0.424735 0.830274 0.976196
0.523568 0.829328 0.972473
0.642283 0.822904 0.963546
0.775616 0.813764 0.952819
0.915755 0.804517 0.94284
0.421683 0.835248 0.92166
0.381582 0.868681 0.957595
0.361852 0.896529 0.98378
0.372412 0.917021 1
0.419333 0.928954 1
0.50248 0.932906 1
0.61651 0.929442 1
0.756786 0.920043 0.99028
0.917525 0.907439 0.977646
0.447166 0.919463 0.965148
0.433555 0.947036 0.986191
0.392569 0.979934 1
0.383429 1 1
0.414725 1 1
0.489418 1 1
0.600031 1 1
0.744244 1 1
0.917556 1 1
